; LightBurn 1.7.07
; GRBL device profile, current position
; Bounds: X-67.83 Y-94 to X67.83 Y94
G00 G17 G40 G21 G54
G91
M4
; Scan @ 4200 mm/min, 55% power
M8
G0 X-60.085Y-92.15
; Layer MDF_Fill_Line
G0 X1.75
G1 X51.332F4200S550
G0 X13.721
G1 X56.43
G0 X1.75
G0 X1.948Y0.1
G0 X-1.75
G1 X-59.967
G0 X-10.231
G1 X-60.218
G0 X-1.749
G0 X-0.717Y0.1
G0 X1.75
G1 X61.004
G0 X10.051
G1 X60.74
G0 X1.75
G0 X0.241Y0.1
G0 X-1.75
G1 X-61.034
G0 X-9.959
G1 X-61.068
G0 X-1.75
G0 X0.014Y0.1
G0 X1.75
G1 X0.313
G0 X60.468
G1 X0.301
G0 X9.899
G1 X0.355
G0 X56.81
G1 X3.967
G0 X1.75
G0 X-0.015Y0.1
G0 X-1.75
G1 X-0.472
G0 X-60.297
G1 X-0.375
G0 X-9.854
G1 X-0.319
G0 X-60.437
G1 X-0.322
G0 X-1.75
G0 X0.027Y0.1
G0 X1.75
G1 X0.326
G0 X60.406
G1 X0.332
G0 X9.826
G1 X0.383
G0 X60.272
G1 X0.456
G0 X1.75
G0 X-0.052Y0.1
G0 X-1.75
G1 X-0.44
G0 X-60.243
G1 X-0.391
G0 X-9.801
G1 X-0.342
G0 X-60.374
G1 X-0.33
G0 X-1.75
G0 X0.031Y0.1
G0 X1.75
G1 X0.334
G0 X60.339
G1 X0.35
G0 X9.783
G1 X0.394
G0 X60.213
G1 X0.43
G0 X1.75
G0 X-0.042Y0.1
G0 X-1.75
G1 X-0.426
G0 X-60.183
G1 X-0.39
G0 X-9.773
G1 X-0.356
G0 X-60.302
G1 X-0.34
G0 X-1.75
G0 X0.034Y0.1
G0 X1.75
G1 X0.344
G0 X60.264
G1 X0.36
G0 X9.764
G1 X0.388
G0 X60.153
G1 X0.425
G0 X1.75
G0 X-0.039Y0.1
G0 X-1.75
G1 X-0.425
G0 X-60.121
G1 X-0.386
G0 X-9.753
G1 X-0.362
G0 X-60.23
G1 X-0.349
G0 X-1.75
G0 X0.034Y0.1
G0 X1.75
G1 X0.353
G0 X60.197
G1 X0.367
G0 X9.735
G1 X0.387
G0 X60.09
G1 X0.425
G0 X1.75
G0 X-0.039Y0.1
G0 X-1.75
G1 X-0.424
G0 X-60.059
G1 X-0.388
G0 X-9.716
G1 X-0.373
G0 X-60.164
G1 X-0.356
G0 X-1.75
G0 X0.035Y0.1
G0 X1.75
G1 X0.359
G0 X60.131
G1 X0.379
G0 X9.696
G1 X0.385
G0 X60.031
G1 X0.425
G0 X1.75
G0 X-0.04Y0.1
G0 X-1.75
G1 X-0.424
G0 X-60.005
G1 X-0.38
G0 X-9.677
G1 X-0.381
G0 X-60.101
G1 X-0.363
G0 X-1.75
G0 X0.036Y0.1
G0 X1.75
G1 X0.366
G0 X60.077
G1 X0.377
G0 X9.658
G1 X0.375
G0 X59.979
G1 X0.424
G0 X1.75
G0 X-0.04Y0.1
G0 X-1.75
G1 X-0.423
G0 X-59.953
G1 X-0.371
G0 X-9.638
G1 X-0.373
G0 X-60.053
G1 X-0.369
G0 X-1.75
G0 X0.037Y0.1
G0 X1.75
G1 X0.371
G0 X60.028
G1 X0.38
G0 X9.594
G1 X0.381
G0 X59.926
G1 X0.424
G0 X1.75
G0 X-0.04Y0.1
G0 X-1.75
G1 X-0.423
G0 X-59.903
G1 X-0.39
G0 X-9.543
G1 X-0.39
G0 X-60.005
G1 X-0.374
G0 X-1.75
G0 X0.037Y0.1
G0 X1.75
G1 X0.376
G0 X59.991
G1 X0.391
G0 X9.493
G1 X0.389
G0 X59.889
G1 X0.422
G0 X1.75
G0 X-0.04Y0.1
G0 X-1.75
G1 X-0.421
G0 X-59.874
G1 X-0.39
G0 X-9.442
G1 X-0.393
G0 X-59.976
G1 X-0.378
G0 X-1.75
G0 X0.038Y0.1
G0 X1.75
G1 X0.38
G0 X59.961
G1 X0.394
G0 X9.391
G1 X0.39
G0 X59.859
G1 X0.422
G0 X1.75
G0 X-0.04Y0.1
G0 X-1.75
G1 X-0.421
G0 X-59.845
G1 X-0.389
G0 X-9.341
G1 X-0.395
G0 X-59.947
G1 X-0.382
G0 X-1.75
G0 X0.037Y0.1
G0 X1.75
G1 X0.384
G0 X59.941
G1 X0.395
G0 X9.271
G1 X0.402
G0 X59.829
G1 X0.421
G0 X1.75
G0 X-0.04Y0.1
G0 X-1.75
G1 X-0.421
G0 X-59.826
G1 X-0.406
G0 X-9.188
G1 X-0.402
G0 X-59.936
G1 X-0.386
G0 X-1.75
G0 X0.038Y0.1
G0 X1.75
G1 X0.387
G0 X59.932
G1 X0.409
G0 X9.105
G1 X0.41
G0 X59.823
G1 X0.421
G0 X1.75
G0 X-0.04Y0.1
G0 X-1.75
G1 X-0.421
G0 X-59.819
G1 X-0.414
G0 X-9.023
G1 X-0.417
G0 X-59.926
G1 X-0.389
G0 X-1.75
G0 X0.039Y0.1
G0 X1.75
G1 X0.389
G0 X59.93
G1 X0.416
G0 X8.94
G1 X0.418
G0 X59.816
G1 X0.421
G0 X1.75
G0 X-0.04Y0.1
G0 X-1.75
G1 X-0.421
G0 X-59.813
G1 X-0.422
G0 X-8.858
G1 X-0.412
G0 X-59.936
G1 X-0.391
G0 X-1.75
G0 X0.039Y0.1
G0 X1.75
G1 X0.392
G0 X59.941
G1 X0.417
G0 X8.754
G1 X0.427
G0 X59.823
G1 X0.42
G0 X1.75
G0 X-0.04Y0.1
G0 X-1.75
G1 X-0.42
G0 X-59.832
G1 X-0.436
G0 X-8.637
G1 X-0.431
G0 X-59.946
G1 X-0.394
G0 X-1.75
G0 X0.039Y0.1
G0 X1.75
G1 X0.394
G0 X59.961
G1 X0.436
G0 X8.52
G1 X0.444
G0 X59.842
G1 X0.42
G0 X1.75
G0 X-0.04Y0.1
G0 X-1.75
G1 X-0.42
G0 X-59.852
G1 X-0.452
G0 X-8.402
G1 X-0.44
G0 X-59.977
G1 X-0.395
G0 X-1.75
G0 X0.038Y0.1
G0 X1.75
G1 X0.397
G0 X4.86
G1 X5.773
G0 X49.36
G1 X0.443
G0 X8.285
G1 X0.458
G0 X50.67
G1 X4.175
G0 X5.019
G1 X0.42
G0 X1.75
G0 X-0.04Y0.1
G0 X-1.75
G1 X-0.42
G0 X-4.64
G1 X-8.827
G0 X-46.42
G1 X-0.455
G0 X-8.166
G1 X-0.446
G0 X-46.756
G1 X-8.592
G0 X-4.661
G1 X-0.398
G0 X-1.75
G0 X0.038Y0.1
G0 X1.75
G1 X0.399
G0 X4.625
G1 X10.374
G0 X45.038
G1 X0.455
G0 X8.012
G1 X0.469
G0 X44.536
G1 X10.739
G0 X4.636
G1 X0.42
G0 X1.75
G0 X-0.04Y0.1
G0 X-1.75
G1 X-0.42
G0 X-4.634
G1 X-11.964
G0 X-43.336
G1 X-0.483
G0 X-7.856
G1 X-0.466
G0 X-43.748
G1 X-11.698
G0 X-4.619
G1 X-0.4
G0 X-1.75
G0 X0.039Y0.1
G0 X1.75
G1 X0.401
G0 X4.619
G1 X12.77
G0 X42.704
G1 X0.476
G0 X7.701
G1 X0.496
G0 X42.412
G1 X12.914
G0 X4.632
G1 X0.419
G0 X1.75
G0 X-0.04Y0.1
G0 X-1.75
G1 X-0.42
G0 X-4.632
G1 X-0.996
G0 X-2.157
G1 X-10.606
G0 X-41.601
G1 X-0.499
G0 X-7.544
G1 X-0.483
G0 X-41.844
G1 X-9.78
G0 X-3.004
G1 X-0.876
G0 X-4.621
G1 X-0.402
G0 X-1.75
G0 X0.039Y0.1
G0 X1.75
G1 X0.402
G0 X4.624
G1 X0.763
G0 X6.449
G1 X7.185
G0 X41.146
G1 X0.481
G0 X7.388
G1 X0.497
G0 X40.855
G1 X7.942
G0 X5.879
G1 X0.723
G0 X4.632
G1 X0.42
G0 X1.75
G0 X-0.04Y0.1
G0 X-1.75
G1 X-0.42
G0 X-4.633
G1 X-0.677
G0 X-8.228
G1 X-6.365
G0 X-40.167
G1 X-0.516
G0 X-7.194
G1 X-0.496
G0 X-40.544
G1 X-5.643
G0 X-8.666
G1 X-0.728
G0 X-4.627
G1 X-0.403
G0 X-1.75
G0 X0.039Y0.1
G0 X1.75
G1 X0.404
G0 X4.63
G1 X0.707
G0 X10.142
G1 X4.828
G0 X39.942
G1 X0.518
G0 X6.99
G1 X0.537
G0 X39.548
G1 X5.372
G0 X9.895
G1 X0.661
G0 X4.634
G1 X0.419
G0 X1.75
G0 X-0.04Y0.1
G0 X-1.75
G1 X-0.419
G0 X-4.635
G1 X-0.655
G0 X-11.243
G1 X-4.633
G0 X-38.993
G1 X-0.549
G0 X-6.787
G1 X-0.526
G0 X-39.462
G1 X-4.229
G0 X-11.286
G1 X-0.693
G0 X-4.633
G1 X-0.404
G0 X-1.75
G0 X0.039Y0.1
G0 X1.75
G1 X0.404
G0 X4.638
G1 X0.684
G0 X12.229
G1 X3.775
G0 X39.034
G1 X0.533
G0 X6.583
G1 X0.553
G0 X38.504
G1 X4.067
G0 X12.356
G1 X0.652
G0 X4.636
G1 X0.42
G0 X1.75
G0 X-0.041Y0.1
G0 X-1.75
G1 X-0.419
G0 X-4.638
G1 X-0.653
G0 X-13.279
G1 X-3.642
G0 X-38.061
G1 X-0.562
G0 X-6.371
G1 X-0.542
G0 X-38.606
G1 X-3.465
G0 X-13.027
G1 X-0.676
G0 X-4.642
G1 X-0.405
G0 X-1.75
G0 X0.04Y0.1
G0 X1.75
G1 X0.405
G0 X4.646
G1 X0.671
G0 X13.672
G1 X3.304
G0 X38.19
G1 X0.57
G0 X6.104
G1 X0.597
G0 X37.617
G1 X3.407
G0 X14.011
G1 X0.655
G0 X4.64
G1 X0.419
G0 X1.75
G0 X-0.04Y0.1
G0 X-1.75
G1 X-0.419
G0 X-4.642
G1 X-0.658
G0 X-14.708
G1 X-3.163
G0 X-37.233
G1 X-0.615
G0 X-5.837
G1 X-0.592
G0 X-37.854
G1 X-3.069
G0 X-14.316
G1 X-0.668
G0 X-4.649
G1 X-0.406
G0 X-1.75
G0 X0.04Y0.1
G0 X1.75
G1 X0.405
G0 X4.654
G1 X0.667
G0 X14.883
G1 X2.906
G0 X37.52
G1 X0.613
G0 X5.57
G1 X0.629
G0 X36.903
G1 X2.924
G0 X15.352
G1 X0.66
G0 X4.644
G1 X0.419
G0 X1.75
G0 X-0.041Y0.1
G0 X-1.75
G1 X-0.419
G0 X-4.646
G1 X-0.662
G0 X-15.866
G1 X-2.814
G0 X-36.573
G1 X-0.647
G0 X-5.296
G1 X-0.622
G0 X-37.227
G1 X-2.796
G0 X-15.371
G1 X-0.666
G0 X-4.658
G1 X-0.406
G0 X-1.75
G0 X0.04Y0.1
G0 X1.75
G1 X0.406
G0 X4.662
G1 X0.665
G0 X15.859
G1 X2.676
G0 X36.95
G1 X0.669
G0 X4.936
G1 X0.697
G0 X36.253
G1 X2.704
G0 X16.381
G1 X0.664
G0 X4.648
G1 X0.419
G0 X1.75
G0 X-0.04Y0.1
G0 X-1.75
G1 X-0.419
G0 X-4.65
G1 X-0.666
G0 X-16.896
G1 X-2.557
G0 X-35.988
G1 X-0.729
G0 X-4.576
G1 X-0.716
G0 X-36.678
G1 X-2.552
G0 X-16.344
G1 X-0.666
G0 X-4.666
G1 X-0.407
G0 X-1.75
G0 X0.039Y0.1
G0 X1.75
G1 X0.407
G0 X4.671
G1 X0.666
G0 X16.756
G1 X2.479
G0 X36.455
G1 X0.736
G0 X4.217
G1 X0.761
G0 X35.735
G1 X2.487
G0 X17.321
G1 X0.668
G0 X4.652
G1 X0.42
G0 X1.75
G0 X-0.041Y0.1
G0 X-1.75
G1 X-0.419
G0 X-4.655
G1 X-0.669
G0 X-17.747
G1 X-2.404
G0 X-35.508
G1 X-0.826
G0 X-3.769
G1 X-0.8
G0 X-36.231
G1 X-2.406
G0 X-17.167
G1 X-0.666
G0 X-4.676
G1 X-0.407
G0 X-1.75
G0 X0.039Y0.1
G0 X1.75
G1 X0.408
G0 X4.68
G1 X0.666
G0 X17.547
G1 X2.358
G0 X36.036
G1 X0.857
G0 X3.294
G1 X0.88
G0 X35.316
G1 X2.352
G0 X18.129
G1 X0.672
G0 X4.656
G1 X0.42
G0 X1.75
G0 X-0.04Y0.1
G0 X-1.75
G1 X-0.42
G0 X-4.659
G1 X-0.673
G0 X-18.512
G1 X-2.298
G0 X-35.127
G1 X-1.044
G0 X-2.598
G1 X-1.011
G0 X-35.868
G1 X-2.3
G0 X-17.922
G1 X-0.666
G0 X-4.685
G1 X-0.408
G0 X-1.75
G0 X0.039Y0.1
G0 X1.75
G1 X0.41
G0 X4.688
G1 X0.666
G0 X18.282
G1 X2.257
G0 X35.727
G1 X4.206
G0 X34.998
G1 X2.251
G0 X18.871
G1 X0.674
G0 X4.661
G1 X0.42
G0 X1.75
G0 X-0.04Y0.1
G0 X-1.75
G1 X-0.42
G0 X-4.664
G1 X-0.676
G0 X-19.22
G1 X-2.214
G0 X-34.879
G1 X-3.727
G0 X-35.608
G1 X-2.225
G0 X-18.629
G1 X-0.666
G0 X-4.693
G1 X-0.41
G0 X-1.75
G0 X0.039Y0.1
G0 X1.75
G1 X0.411
G0 X4.697
G1 X0.666
G0 X18.977
G1 X2.179
G0 X35.563
G1 X3.124
G0 X34.832
G1 X2.174
G0 X19.565
G1 X0.677
G0 X4.667
G1 X0.42
G0 X1.75
G0 X-0.04Y0.1
G0 X-1.75
G1 X-0.421
G0 X-4.669
G1 X-0.679
G0 X-19.889
G1 X-2.146
G0 X-34.845
G1 X-2.402
G0 X-35.586
G1 X-2.152
G0 X-19.304
G1 X-0.666
G0 X-4.702
G1 X-0.411
G0 X-1.75
G0 X0.04Y0.1
G0 X1.75
G1 X0.411
G0 X4.706
G1 X0.666
G0 X19.629
G1 X2.128
G0 X35.827
G1 X1.251
G0 X35.069
G1 X2.118
G0 X20.214
G1 X0.68
G0 X4.672
G1 X0.42
G0 X1.75
G0 X-0.04Y0.1
G0 X-1.75
G1 X-0.421
G0 X-4.675
G1 X-0.68
G0 X-20.533
G1 X-2.092
G0 X-71.471
G1 X-2.097
G0 X-19.954
G1 X-0.666
G0 X-4.711
G1 X-0.411
G0 X-1.75
G0 X0.039Y0.1
G0 X1.75
G1 X0.412
G0 X4.715
G1 X0.666
G0 X20.264
G1 X2.076
G0 X70.809
G1 X2.071
G0 X20.838
G1 X0.682
G0 X4.678
G1 X0.42
G0 X1.75
G0 X-0.04Y0.1
G0 X-1.75
G1 X-0.42
G0 X-4.681
G1 X-0.683
G0 X-21.143
G1 X-2.051
G0 X-70.147
G1 X-2.056
G0 X-20.572
G1 X-0.666
G0 X-4.72
G1 X-0.412
G0 X-1.75
G0 X0.04Y0.1
G0 X1.75
G1 X0.412
G0 X4.725
G1 X0.666
G0 X20.88
G1 X2.036
G0 X69.485
G1 X2.032
G0 X21.446
G1 X0.685
G0 X4.683
G1 X0.42
G0 X1.75
G0 X-0.04Y0.1
G0 X-1.75
G1 X-0.42
G0 X-4.687
G1 X-0.685
G0 X-21.738
G1 X-2.016
G0 X-68.836
G1 X-2.021
G0 X-21.178
G1 X-0.667
G0 X-4.73
G1 X-0.412
G0 X-1.75
G0 X0.04Y0.1
G0 X1.75
G1 X0.412
G0 X4.734
G1 X0.668
G0 X21.473
G1 X2.006
G0 X68.191
G1 X2.001
G0 X22.029
G1 X0.686
G0 X4.689
G1 X0.42
G0 X1.75
G0 X-0.04Y0.1
G0 X-1.75
G1 X-0.421
G0 X-4.691
G1 X-0.688
G0 X-22.32
G1 X-1.986
G0 X-67.545
G1 X-1.992
G0 X-21.767
G1 X-0.668
G0 X-4.739
G1 X-0.412
G0 X-1.75
G0 X0.04Y0.1
G0 X1.75
G1 X0.412
G0 X4.744
G1 X0.668
G0 X22.062
G1 X1.973
G0 X66.906
G1 X1.973
G0 X22.607
G1 X0.689
G0 X4.694
G1 X0.42
G0 X1.75
G0 X-0.04Y0.1
G0 X-1.75
G1 X-0.421
G0 X-4.697
G1 X-0.69
G0 X-22.889
G1 X-1.959
G0 X-66.272
G1 X-1.962
G0 X-22.349
G1 X-0.668
G0 X-4.749
G1 X-0.413
G0 X-1.75
G0 X0.04Y0.1
G0 X1.75
G1 X0.413
G0 X4.754
G1 X0.668
G0 X22.636
G1 X1.949
G0 X65.639
G1 X1.949
G0 X23.169
G1 X0.691
G0 X4.7
G1 X0.42
G0 X1.75
G0 X-0.04Y0.1
G0 X-1.75
G1 X-0.421
G0 X-4.702
G1 X-0.692
G0 X-23.448
G1 X-1.94
G0 X-65.007
G1 X-1.94
G0 X-22.918
G1 X-0.667
G0 X-4.76
G1 X-0.413
G0 X-1.75
G0 X0.04Y0.1
G0 X1.75
G1 X0.414
G0 X4.764
G1 X0.667
G0 X23.201
G1 X1.928
G0 X64.379
G1 X1.932
G0 X23.724
G1 X0.693
G0 X4.704
G1 X0.421
G0 X1.75
G0 X-0.04Y0.1
G0 X-1.75
G1 X-0.421
G0 X-4.708
G1 X-0.693
G0 X-23.999
G1 X-1.922
G0 X-63.754
G1 X-1.92
G0 X-23.48
G1 X-0.667
G0 X-4.769
G1 X-0.414
G0 X-1.75
G0 X0.04Y0.1
G0 X1.75
G1 X0.414
G0 X4.774
G1 X0.667
G0 X23.758
G1 X1.914
G0 X63.128
G1 X1.914
G0 X24.272
G1 X0.694
G0 X4.71
G1 X0.421
G0 X1.75
G0 X-0.04Y0.1
G0 X-1.75
G1 X-0.421
G0 X-4.714
G1 X-0.695
G0 X-24.543
G1 X-1.907
G0 X-62.503
G1 X-1.909
G0 X-24.034
G1 X-0.667
G0 X-4.779
G1 X-0.415
G0 X-1.75
G0 X0.04Y0.1
G0 X1.75
G1 X0.415
G0 X4.785
G1 X0.666
G0 X24.309
G1 X1.905
G0 X61.877
G1 X1.902
G0 X24.814
G1 X0.696
G0 X4.716
G1 X0.421
G0 X1.75
G0 X-0.04Y0.1
G0 X-1.75
G1 X-0.422
G0 X-4.719
G1 X-0.696
G0 X-3.662
G1 X-0.099
G0 X-21.325
G1 X-1.895
G0 X-61.252
G1 X-1.9
G0 X-24.584
G1 X-0.667
G0 X-4.79
G1 X-0.415
G0 X-1.75
G0 X0.04Y0.1
G0 X1.75
G1 X0.415
G0 X4.795
G1 X0.667
G0 X24.859
G1 X1.896
G0 X60.627
G1 X1.889
G0 X21.52
G1 X0.36
G0 X3.477
G1 X0.696
G0 X4.723
G1 X0.421
G0 X1.75
G0 X-0.04Y0.1
G0 X-1.75
G1 X-0.422
G0 X-4.725
G1 X-0.697
G0 X-3.317
G1 X-0.565
G0 X-15.435
G1 X-0.39
G0 X-3.646
G1 X-0.038
G0 X-2.239
G1 X-1.881
G0 X-60
G1 X-1.893
G0 X-25.135
G1 X-0.667
G0 X-4.8
G1 X-0.414
G0 X-1.75
G0 X0.04Y0.1
G0 X1.75
G1 X0.414
G0 X4.806
G1 X0.667
G0 X25.409
G1 X1.894
G0 X59.365
G1 X1.877
G0 X2.486
G1 X0.119
G0 X3.4
G1 X0.834
G0 X15.157
G1 X0.75
G0 X3.158
G1 X0.697
G0 X4.729
G1 X0.421
G0 X1.75
G0 X-0.04Y0.1
G0 X-1.75
G1 X-0.422
G0 X-4.732
G1 X-0.697
G0 X-2.998
G1 X-0.919
G0 X-14.983
G1 X-0.58
G0 X-0.154
G1 X-0.34
G0 X-3.307
G1 X-0.163
G0 X-2.734
G1 X-1.876
G0 X-58.727
G1 X-1.895
G0 X-25.684
G1 X-0.667
G0 X-4.811
G1 X-0.414
G0 X-1.75
G0 X0.04Y0.1
G0 X1.75
G1 X0.415
G0 X4.815
G1 X0.668
G0 X25.959
G1 X1.899
G0 X58.086
G1 X1.872
G0 X3.001
G1 X0.189
G0 X3.269
G1 X0.358
G0 X0.366
G1 X0.537
G0 X15.106
G1 X0.756
G0 X2.872
G1 X0.698
G0 X4.734
G1 X0.422
G0 X1.75
G0 X-0.04Y0.1
G0 X-1.75
G1 X-0.422
G0 X-4.738
G1 X-0.699
G0 X-2.746
G1 X-0.656
G0 X-1.219
G1 X-0.206
G0 X-13.762
G1 X-0.507
G0 X-0.508
G1 X-0.38
G0 X-3.259
G1 X-0.21
G0 X-3.277
G1 X-1.873
G0 X-57.44
G1 X-1.902
G0 X-26.235
G1 X-0.668
G0 X-4.82
G1 X-0.415
G0 X-1.75
G0 X0.04Y0.1
G0 X1.75
G1 X0.415
G0 X4.826
G1 X0.668
G0 X26.512
G1 X1.909
G0 X56.786
G1 X1.876
G0 X3.552
G1 X0.24
G0 X0.619
G1 X1.099
G0 X0.258
G1 X0.213
G0 X1.084
G1 X0.393
G0 X0.599
G1 X0.493
G0 X1.211
G1 X0.432
G0 X1.334
G1 X0.114
G0 X0.838
G1 X0.08
G0 X1.001
G1 X0.433
G0 X3.173
G1 X0.294
G0 X1.05
G1 X0.346
G0 X0.711
G1 X1.09
G0 X0.376
G1 X0.104
G0 X0.856
G1 X0.646
G0 X1.15
G1 X0.596
G0 X2.622
G1 X0.699
G0 X4.741
G1 X0.422
G0 X1.75
G0 X-0.041Y0.1
G0 X-1.75
G1 X-0.422
G0 X-4.743
G1 X-0.7
G0 X-2.497
G1 X-0.557
G0 X-1.078
G1 X-0.492
G0 X-0.066
G1 X-0.446
G0 X-0.673
G1 X-1.685
G0 X-0.498
G1 X-0.508
G0 X-0.978
G1 X-0.481
G0 X-2.809
G1 X-0.769
G0 X-0.668
G1 X-0.425
G0 X-0.531
G1 X-0.416
G0 X-0.986
G1 X-0.773
G0 X-0.988
G1 X-0.488
G0 X-0.658
G1 X-0.421
G0 X-1.075
G1 X-1.685
G0 X-0.536
G1 X-0.247
G0 X-3.853
G1 X-1.876
G0 X-56.131
G1 X-1.916
G0 X-26.791
G1 X-0.668
G0 X-4.83
G1 X-0.415
G0 X-1.75
G0 X0.04Y0.1
G0 X1.75
G1 X0.415
G0 X4.835
G1 X0.668
G0 X27.069
G1 X1.923
G0 X55.469
G1 X1.883
G0 X4.158
G1 X0.251
G0 X0.724
G1 X1.496
G0 X1.123
G1 X0.447
G0 X0.672
G1 X0.488
G0 X0.844
G1 X0.34
G0 X0.293
G1 X0.361
G0 X0.759
G1 X0.623
G0 X0.378
G1 X0.41
G0 X0.635
G1 X0.328
G0 X0.306
G1 X0.353
G0 X2.693
G1 X0.477
G0 X0.959
G1 X0.584
G0 X0.587
G1 X1.497
G0 X0.591
G1 X0.436
G0 X0.321
G1 X0.477
G0 X1.055
G1 X0.51
G0 X2.392
G1 X0.7
G0 X4.746
G1 X0.423
G0 X1.75
G0 X-0.041Y0.1
G0 X-1.75
G1 X-0.422
G0 X-4.75
G1 X-0.7
G0 X-2.293
G1 X-0.483
G0 X-1.016
G1 X-0.46
G0 X-0.525
G1 X-0.429
G0 X-0.595
G1 X-0.954
G0 X-1.01
G1 X-0.621
G0 X-0.951
G1 X-0.472
G0 X-2.607
G1 X-0.332
G0 X-0.459
G1 X-0.37
G0 X-0.604
G1 X-0.393
G0 X-0.273
G1 X-0.221
G0 X-0.171
G1 X-0.365
G0 X-0.605
G1 X-0.338
G0 X-0.465
G1 X-0.365
G0 X-0.724
G1 X-0.482
G0 X-0.682
G1 X-0.476
G0 X-1.216
G1 X-0.955
G0 X-1.212
G1 X-0.262
G0 X-4.464
G1 X-1.89
G0 X-54.805
G1 X-1.928
G0 X-27.349
G1 X-0.669
G0 X-4.84
G1 X-0.415
G0 X-1.75
G0 X0.04Y0.1
G0 X1.75
G1 X0.415
G0 X4.846
G1 X0.668
G0 X27.631
G1 X1.941
G0 X54.13
G1 X1.896
G0 X4.774
G1 X0.276
G0 X1.264
G1 X0.416
G0 X1.74
G1 X0.523
G0 X0.651
G1 X0.498
G0 X0.636
G1 X0.381
G0 X0.578
G1 X0.324
G0 X0.5
G1 X0.385
G0 X0.281
G1 X0.199
G0 X0.183
G1 X0.38
G0 X0.589
G1 X0.384
G0 X0.574
G1 X0.324
G0 X2.543
G1 X0.473
G0 X0.937
G1 X0.547
G0 X1.111
G1 X0.416
G0 X1.038
G1 X0.436
G0 X0.674
G1 X0.473
G0 X0.978
G1 X0.455
G0 X2.194
G1 X0.701
G0 X4.752
G1 X0.423
G0 X1.75
G0 X-0.041Y0.1
G0 X-1.75
G1 X-0.423
G0 X-4.755
G1 X-0.701
G0 X-2.095
G1 X-0.442
G0 X-0.966
G1 X-0.444
G0 X-0.796
G1 X-0.439
G0 X-0.992
G1 X-0.419
G0 X-1.265
G1 X-0.392
G0 X-0.931
G1 X-0.473
G0 X-2.5
G1 X-0.315
G0 X-0.654
G1 X-0.406
G0 X-0.571
G1 X-0.372
G0 X-0.117
G1 X-0.193
G0 X-0.341
G1 X-0.406
G0 X-0.425
G1 X-0.314
G0 X-0.666
G1 X-0.395
G0 X-0.564
G1 X-0.505
G0 X-0.688
G1 X-0.489
G0 X-1.755
G1 X-0.42
G0 X-1.297
G1 X-0.279
G0 X-5.093
G1 X-1.91
G0 X-26.66
G1 X-0.09
G0 X-26.698
G1 X-1.954
G0 X-27.912
G1 X-0.669
G0 X-4.85
G1 X-0.416
G0 X-1.75
G0 X0.04Y0.1
G0 X1.75
G1 X0.416
G0 X4.855
G1 X0.67
G0 X28.194
G1 X1.967
G0 X26.231
G1 X0.312
G0 X26.221
G1 X1.92
G0 X5.418
G1 X0.283
G0 X1.328
G1 X0.424
G0 X1.771
G1 X0.285
G0 X0.893
G1 X0.501
G0 X0.526
G1 X0.404
G0 X0.727
G1 X0.303
G0 X0.378
G1 X0.411
G0 X0.387
G1 X0.193
G0 X0.068
G1 X0.362
G0 X0.567
G1 X0.41
G0 X0.721
G1 X0.308
G0 X2.47
G1 X0.468
G0 X0.924
G1 X0.171
G0 X1.485
G1 X0.423
G0 X0.946
G1 X0.459
G0 X0.875
G1 X0.44
G0 X0.941
G1 X0.441
G0 X1.997
G1 X0.701
G0 X4.759
G1 X0.423
G0 X1.75
G0 X-0.041Y0.1
G0 X-1.75
G1 X-0.423
G0 X-4.761
G1 X-0.703
G0 X-1.918
G1 X-0.421
G0 X-0.916
G1 X-0.438
G0 X-0.934
G1 X-0.468
G0 X-0.928
G1 X-0.428
G0 X-2.572
G1 X-0.463
G0 X-2.457
G1 X-0.306
G0 X-0.752
G1 X-0.428
G0 X-0.545
G1 X-0.359
G0 X-0.034
G1 X-0.187
G0 X-0.435
G1 X-0.415
G0 X-0.334
G1 X-0.31
G0 X-0.754
G1 X-0.426
G0 X-0.488
G1 X-0.496
G0 X-2.967
G1 X-0.428
G0 X-1.351
G1 X-0.296
G0 X-5.742
G1 X-1.937
G0 X-25.841
G1 X-0.377
G0 X-25.851
G1 X-1.985
G0 X-28.476
G1 X-0.67
G0 X-4.86
G1 X-0.416
G0 X-1.75
G0 X0.041Y0.1
G0 X1.75
G1 X0.415
G0 X4.865
G1 X0.671
G0 X28.762
G1 X2.006
G0 X25.479
G1 X0.415
G0 X25.468
G1 X1.954
G0 X6.073
G1 X0.307
G0 X1.373
G1 X0.431
G0 X2.985
G1 X0.491
G0 X0.451
G1 X0.46
G0 X0.766
G1 X0.298
G0 X0.312
G1 X0.441
G0 X0.46
G1 X0.167
G0 X0.019
G1 X0.355
G0 X0.521
G1 X0.453
G0 X0.773
G1 X0.302
G0 X2.448
G1 X0.463
G0 X2.56
G1 X0.432
G0 X0.91
G1 X0.505
G0 X0.961
G1 X0.427
G0 X0.902
G1 X0.403
G0 X1.84
G1 X0.703
G0 X4.764
G1 X0.424
G0 X1.75
G0 X-0.041Y0.1
G0 X-1.75
G1 X-0.424
G0 X-4.767
G1 X-0.703
G0 X-1.763
G1 X-0.394
G0 X-0.894
G1 X-0.418
G0 X-0.97
G1 X-0.542
G0 X-0.892
G1 X-0.436
G0 X-2.543
G1 X-0.466
G0 X-2.454
G1 X-0.301
G0 X-0.765
G1 X-0.476
G0 X-0.51
G1 X-0.351
G0 X-0.007
G1 X-0.145
G0 X-0.481
G1 X-0.466
G0 X-0.297
G1 X-0.302
G0 X-0.755
G1 X-0.485
G0 X-0.435
G1 X-0.479
G0 X-3.003
G1 X-0.435
G0 X-1.396
G1 X-0.309
G0 X-6.413
G1 X-1.973
G0 X-25.099
G1 X-0.441
G0 X-2.622
G1 X-0.568
G0 X-21.921
G1 X-2.027
G0 X-29.049
G1 X-0.671
G0 X-4.87
G1 X-0.416
G0 X-1.75
G0 X0.04Y0.1
G0 X1.75
G1 X0.416
G0 X4.875
G1 X0.671
G0 X29.338
G1 X2.048
G0 X21.291
G1 X0.911
G0 X2.545
G1 X0.461
G0 X2.859
G1 X0.56
G0 X21.302
G1 X1.998
G0 X6.758
G1 X0.317
G0 X1.412
G1 X0.441
G0 X3.008
G1 X0.476
G0 X0.428
G1 X0.504
G0 X0.742
G1 X0.299
G0 X0.305
G1 X0.477
G0 X0.498
G1 X0.469
G0 X0.506
G1 X0.502
G0 X0.743
G1 X0.298
G0 X2.468
G1 X0.466
G0 X2.526
G1 X0.441
G0 X0.882
G1 X0.569
G0 X0.981
G1 X0.408
G0 X0.885
G1 X0.386
G0 X1.686
G1 X0.704
G0 X4.77
G1 X0.424
G0 X1.75
G0 X-0.041Y0.1
G0 X-1.75
G1 X-0.424
G0 X-4.773
G1 X-0.704
G0 X-1.608
G1 X-0.381
G0 X-0.874
G1 X-0.401
G0 X-0.969
G1 X-0.611
G0 X-0.874
G1 X-0.449
G0 X-2.509
G1 X-1.314
G0 X-1.642
G1 X-0.301
G0 X-0.702
G1 X-0.534
G0 X-0.502
G1 X-0.447
G0 X-0.493
G1 X-0.496
G0 X-0.328
G1 X-0.298
G0 X-0.71
G1 X-0.525
G0 X-0.423
G1 X-0.477
G0 X-3.006
G1 X-0.449
G0 X-1.424
G1 X-0.33
G0 X-7.103
G1 X-2.022
G0 X-20.682
G1 X-0.895
G0 X-2.769
G1 X-0.477
G0 X-2.574
G1 X-1.125
G0 X-20.671
G1 X-2.078
G0 X-29.631
G1 X-0.672
G0 X-4.88
G1 X-0.416
G0 X-1.75
G0 X0.04Y0.1
G0 X1.75
G1 X0.417
G0 X4.885
G1 X0.672
G0 X29.925
G1 X2.108
G0 X20.05
G1 X1.246
G0 X2.697
G1 X0.491
G0 X2.74
G1 X1.172
G0 X20.046
G1 X2.055
G0 X7.458
G1 X0.337
G0 X1.437
G1 X0.457
G0 X3.004
G1 X0.479
G0 X0.423
G1 X0.566
G0 X0.652
G1 X0.298
G0 X0.35
G1 X0.54
G0 X0.463
G1 X0.426
G0 X0.504
G1 X0.562
G0 X0.657
G1 X0.296
G0 X1.417
G1 X1.57
G0 X2.492
G1 X0.457
G0 X0.867
G1 X0.667
G0 X0.936
G1 X0.382
G0 X0.874
G1 X0.373
G0 X1.54
G1 X0.704
G0 X4.776
G1 X0.425
G0 X1.75
G0 X-0.041Y0.1
G0 X-1.75
G1 X-0.425
G0 X-4.779
G1 X-0.704
G0 X-1.475
G1 X-0.363
G0 X-0.9
G1 X-0.362
G0 X-0.877
G1 X-0.719
G0 X-0.864
G1 X-0.465
G0 X-1.183
G1 X-0.267
G0 X-0.818
G1 X-0.683
G0 X-0.467
G1 X-0.805
G0 X-1.272
G1 X-0.305
G0 X-0.58
G1 X-0.586
G0 X-0.516
G1 X-0.414
G0 X-0.435
G1 X-0.567
G0 X-0.4
G1 X-0.301
G0 X-0.579
G1 X-0.588
G0 X-0.443
G1 X-0.48
G0 X-3.002
G1 X-0.465
G0 X-1.448
G1 X-0.339
G0 X-7.822
G1 X-2.086
G0 X-19.406
G1 X-1.369
G0 X-2.796
G1 X-0.502
G0 X-2.87
G1 X-1.333
G0 X-19.412
G1 X-2.137
G0 X-30.224
G1 X-0.671
G0 X-4.891
G1 X-0.417
G0 X-1.75
G0 X0.041Y0.1
G0 X1.75
G1 X0.416
G0 X4.897
G1 X0.671
G0 X30.525
G1 X2.181
G0 X18.757
G1 X1.395
G0 X3.067
G1 X0.511
G0 X2.94
G1 X1.512
G0 X18.708
G1 X2.137
G0 X8.191
G1 X0.351
G0 X1.452
G1 X0.47
G0 X3.001
G1 X0.479
G0 X0.466
G1 X0.637
G0 X0.478
G1 X0.295
G0 X0.468
G1 X0.601
G0 X0.39
G1 X0.403
G0 X0.527
G1 X0.625
G0 X0.49
G1 X0.298
G0 X1.292
G1 X0.481
G0 X0.838
G1 X0.468
G0 X0.084
G1 X0.125
G0 X0.686
G1 X0.474
G0 X1.081
G1 X0.47
G0 X0.872
G1 X0.785
G0 X0.777
G1 X0.337
G0 X0.946
G1 X0.355
G0 X1.409
G1 X0.704
G0 X4.783
G1 X0.424
G0 X1.75
G0 X-0.041Y0.1
G0 X-1.75
G1 X-0.424
G0 X-4.786
G1 X-0.705
G0 X-1.343
G1 X-0.354
G0 X-0.996
G1 X-0.314
G0 X-0.636
G1 X-0.291
G0 X-0.029
G1 X-0.558
G0 X-0.88
G1 X-0.473
G0 X-1.023
G1 X-0.566
G0 X-0.839
G1 X-0.473
G0 X-0.813
G1 X-0.472
G0 X-1.379
G1 X-0.306
G0 X-0.354
G1 X-0.691
G0 X-0.542
G1 X-0.392
G0 X-0.309
G1 X-0.671
G0 X-0.536
G1 X-0.304
G0 X-0.349
G1 X-0.696
G0 X-0.495
G1 X-0.476
G0 X-2.998
G1 X-0.473
G0 X-1.459
G1 X-0.362
G0 X-8.562
G1 X-2.187
G0 X-18.004
G1 X-1.602
G0 X-3.142
G1 X-0.521
G0 X-3.277
G1 X-1.445
G0 X-18.102
G1 X-2.22
G0 X-30.83
G1 X-0.671
G0 X-4.903
G1 X-0.416
G0 X-1.75
G0 X0.04Y0.1
G0 X1.75
G1 X0.417
G0 X4.907
G1 X0.672
G0 X31.142
G1 X2.268
G0 X17.432
G1 X1.488
G0 X3.495
G1 X0.528
G0 X3.383
G1 X1.678
G0 X17.275
G1 X2.229
G0 X8.948
G1 X0.368
G0 X1.465
G1 X0.479
G0 X2.993
G1 X0.472
G0 X0.554
G1 X0.772
G0 X0.172
G1 X0.297
G0 X0.635
G1 X0.727
G0 X0.227
G1 X0.382
G0 X0.587
G1 X0.759
G0 X0.185
G1 X0.298
G0 X1.482
G1 X0.47
G0 X0.782
G1 X0.479
G0 X0.803
G1 X0.611
G0 X0.991
G1 X0.478
G0 X0.89
G1 X0.58
G0 X0.069
G1 X0.327
G0 X0.469
G1 X0.282
G0 X1.072
G1 X0.348
G0 X1.284
G1 X0.704
G0 X4.789
G1 X0.425
G0 X1.75
G0 X-0.041Y0.1
G0 X-1.75
G1 X-0.425
G0 X-4.792
G1 X-0.704
G0 X-1.232
G1 X-0.336
G0 X-1.177
G1 X-0.259
G0 X-0.167
G1 X-0.444
G0 X-0.123
G1 X-0.589
G0 X-0.911
G1 X-0.485
G0 X-1.034
G1 X-0.58
G0 X-0.769
G1 X-0.484
G0 X-0.751
G1 X-0.474
G0 X-1.618
G1 X-1.093
G0 X-0.769
G1 X-0.24
G0 X-0.123
G1 X-0.782
G0 X-0.792
G1 X-1.094
G0 X-0.612
G1 X-0.483
G0 X-2.973
G1 X-0.486
G0 X-1.465
G1 X-0.375
G0 X-9.34
G1 X-2.278
G0 X-16.529
G1 X-1.739
G0 X-3.649
G1 X-0.534
G0 X-3.731
G1 X-1.554
G0 X-16.709
G1 X-2.325
G0 X-31.457
G1 X-0.672
G0 X-4.913
G1 X-0.417
G0 X-1.75
G0 X0.04Y0.1
G0 X1.75
G1 X0.417
G0 X4.919
G1 X0.671
G0 X31.783
G1 X2.38
G0 X15.957
G1 X1.639
G0 X3.969
G1 X0.54
G0 X3.929
G1 X1.805
G0 X15.725
G1 X2.357
G0 X9.741
G1 X0.386
G0 X1.461
G1 X0.493
G0 X2.953
G1 X0.493
G0 X0.679
G1 X0.764
G0 X1.125
G1 X0.623
G0 X1.288
G1 X0.764
G0 X1.925
G1 X0.481
G0 X0.719
G1 X0.49
G0 X0.74
G1 X0.443
G0 X1.177
G1 X0.492
G0 X0.933
G1 X0.596
G0 X0.215
G1 X0.605
G0 X1.295
G1 X0.33
G0 X1.181
G1 X0.705
G0 X4.794
G1 X0.425
G0 X1.75
G0 X-0.041Y0.1
G0 X-1.75
G1 X-0.425
G0 X-4.797
G1 X-0.705
G0 X-1.129
G1 X-0.325
G0 X-1.441
G1 X-0.224
G0 X-0.376
G1 X-0.62
G0 X-0.957
G1 X-0.499
G0 X-1.384
G1 X-0.24
G0 X-0.713
G1 X-0.496
G0 X-0.687
G1 X-0.489
G0 X-2.065
G1 X-0.575
G0 X-1.505
G1 X-0.393
G0 X-1.327
G1 X-0.574
G0 X-0.774
G1 X-0.503
G0 X-2.932
G1 X-0.5
G0 X-1.456
G1 X-0.399
G0 X-10.151
G1 X-2.425
G0 X-14.895
G1 X-1.889
G0 X-4.218
G1 X-0.546
G0 X-4.206
G1 X-1.725
G0 X-15.178
G1 X-2.456
G0 X-32.114
G1 X-0.671
G0 X-4.924
G1 X-0.418
G0 X-1.75
G0 X0.04Y0.1
G0 X1.75
G1 X0.418
G0 X4.93
G1 X0.671
G0 X32.455
G1 X2.531
G0 X14.389
G1 X1.791
G0 X4.465
G1 X0.55
G0 X4.513
G1 X1.986
G0 X14.047
G1 X2.486
G0 X10.58
G1 X0.402
G0 X1.006
G1 X0.02
G0 X0.423
G1 X0.507
G0 X2.912
G1 X0.508
G0 X0.946
G1 X0.273
G0 X3.526
G1 X0.273
G0 X2.24
G1 X0.501
G0 X0.655
G1 X0.501
G0 X1.871
G1 X0.02
G0 X0.424
G1 X0.506
G0 X0.989
G1 X0.644
G0 X1.959
G1 X0.319
G0 X1.078
G1 X0.705
G0 X4.8
G1 X0.426
G0 X1.75
G0 X-0.041Y0.1
G0 X-1.75
G1 X-0.426
G0 X-4.803
G1 X-0.705
G0 X-1.039
G1 X-0.31
G0 X-1.867
G1 X-0.67
G0 X-1.02
G1 X-0.513
G0 X-0.335
G1 X-0.179
G0 X-1.772
G1 X-0.513
G0 X-0.624
G1 X-0.516
G0 X-7.299
G1 X-0.513
G0 X-2.892
G1 X-0.514
G0 X-0.334
G1 X-0.179
G0 X-0.919
G1 X-0.414
G0 X-11.01
G1 X-2.611
G0 X-13.134
G1 X-2.079
G0 X-4.813
G1 X-0.554
G0 X-4.741
G1 X-1.91
G0 X-13.493
G1 X-2.629
G0 X-32.81
G1 X-0.671
G0 X-4.936
G1 X-0.417
G0 X-1.75
G0 X0.04Y0.1
G0 X1.75
G1 X0.417
G0 X4.942
G1 X0.671
G0 X33.175
G1 X2.744
G0 X12.547
G1 X2.051
G0 X5.018
G1 X0.558
G0 X5.135
G1 X2.178
G0 X12.19
G1 X2.721
G0 X11.458
G1 X0.425
G0 X0.947
G1 X0.238
G0 X0.232
G1 X0.524
G0 X2.867
G1 X0.519
G0 X7.34
G1 X0.535
G0 X0.591
G1 X0.527
G0 X1.784
G1 X0.237
G0 X0.232
G1 X0.524
G0 X1.047
G1 X0.695
G0 X1.776
G1 X0.299
G0 X1.002
G1 X0.705
G0 X4.806
G1 X0.426
G0 X1.75
G0 X-0.041Y0.1
G0 X-1.75
G1 X-0.425
G0 X-4.81
G1 X-0.705
G0 X-0.964
G1 X-0.289
G0 X-1.649
G1 X-0.747
G0 X-1.083
G1 X-0.535
G0 X-0.107
G1 X-0.315
G0 X-1.797
G1 X-0.542
G0 X-0.557
G1 X-0.558
G0 X-7.378
G1 X-0.525
G0 X-2.842
G1 X-0.536
G0 X-0.106
G1 X-0.316
G0 X-0.977
G1 X-0.433
G0 X-11.922
G1 X-2.846
G0 X-11.156
G1 X-2.34
G0 X-5.457
G1 X-0.562
G0 X-5.317
G1 X-2.17
G0 X-11.569
G1 X-2.873
G0 X-33.558
G1 X-0.671
G0 X-4.947
G1 X-0.418
G0 X-1.75
G0 X0.04Y0.1
G0 X1.75
G1 X0.418
G0 X4.953
G1 X0.671
G0 X33.973
G1 X3.047
G0 X10.415
G1 X2.363
G0 X5.642
G1 X0.565
G0 X5.779
G1 X2.502
G0 X10.049
G1 X3.043
G0 X12.396
G1 X0.446
G0 X1.005
G1 X0.911
G0 X2.803
G1 X0.544
G0 X2.832
G1 X0.903
G0 X3.677
G1 X0.585
G0 X0.523
G1 X0.556
G0 X1.822
G1 X0.911
G0 X1.134
G1 X0.784
G0 X1.514
G1 X0.286
G0 X0.926
G1 X0.705
G0 X4.813
G1 X0.425
G0 X1.75
G0 X-0.04Y0.1
G0 X-1.75
G1 X-0.426
G0 X-4.816
G1 X-0.705
G0 X-0.895
G1 X-0.278
G0 X-1.378
G1 X-0.819
G0 X-1.187
G1 X-0.86
G0 X-1.85
G1 X-0.571
G0 X-0.489
G1 X-0.612
G0 X-3.633
G1 X-1.118
G0 X-2.7
G1 X-0.558
G0 X-2.765
G1 X-0.86
G0 X-1.036
G1 X-0.459
G0 X-12.908
G1 X-3.22
G0 X-8.807
G1 X-2.737
G0 X-6.145
G1 X-0.568
G0 X-5.967
G1 X-2.613
G0 X-9.085
G1 X-3.335
G0 X-34.393
G1 X-0.672
G0 X-4.958
G1 X-0.417
G0 X-1.75
G0 X0.04Y0.1
G0 X1.75
G1 X0.418
G0 X4.963
G1 X0.672
G0 X34.835
G1 X3.663
G0 X7.605
G1 X2.903
G0 X6.339
G1 X0.571
G0 X6.53
G1 X2.998
G0 X7.374
G1 X3.545
G0 X13.419
G1 X0.479
G0 X1.07
G1 X0.799
G0 X2.727
G1 X0.572
G0 X2.618
G1 X1.154
G0 X3.717
G1 X0.64
G0 X0.456
G1 X0.584
G0 X1.889
G1 X0.8
G0 X1.239
G1 X0.905
G0 X1.191
G1 X0.262
G0 X0.872
G1 X0.705
G0 X4.819
G1 X0.426
G0 X1.75
G0 X-0.041Y0.1
G0 X-1.75
G1 X-0.426
G0 X-4.822
G1 X-0.705
G0 X-0.848
G1 X-0.252
G0 X-0.994
G1 X-0.967
G0 X-1.315
G1 X-0.744
G0 X-1.955
G1 X-0.572
G0 X-0.421
G1 X-0.676
G0 X-3.804
G1 X-0.341
G0 X-3.375
G1 X-0.586
G0 X-2.682
G1 X-0.745
G0 X-1.083
G1 X-0.507
G0 X-13.989
G1 X-3.974
G0 X-5.569
G1 X-3.482
G0 X-6.914
G1 X-0.573
G0 X-6.725
G1 X-3.396
G0 X-5.617
G1 X-4.252
G0 X-35.308
G1 X-0.672
G0 X-4.969
G1 X-0.417
G0 X-1.75
G0 X0.04Y0.1
G0 X1.75
G1 X0.418
G0 X4.974
G1 X0.672
G0 X35.79
G1 X5.451
G0 X2.421
G1 X4.44
G0 X7.149
G1 X0.575
G0 X7.377
G1 X4.268
G0 X2.932
G1 X4.846
G0 X14.569
G1 X0.534
G0 X1.083
G1 X0.727
G0 X2.613
G1 X0.6
G0 X3.603
G1 X0.038
G0 X3.911
G1 X0.618
G0 X0.479
G1 X0.414
G0 X2.153
G1 X0.728
G0 X1.37
G1 X1.095
G0 X0.722
G1 X0.246
G0 X0.824
G1 X0.705
G0 X4.825
G1 X0.426
G0 X1.75
G0 X-0.04Y0.1
G0 X-1.75
G1 X-0.427
G0 X-4.828
G1 X-0.705
G0 X-0.803
G1 X-0.237
G0 X-0.803
G1 X-0.871
G0 X-1.434
G1 X-0.71
G0 X-2.408
G1 X-0.191
G0 X-0.688
G1 X-0.41
G0 X-7.583
G1 X-0.614
G0 X-2.553
G1 X-0.709
G0 X-1.04
G1 X-0.596
G0 X-15.219
G1 X-10.982
G0 X-7.853
G1 X-0.578
G0 X-7.617
G1 X-11.253
G0 X-36.334
G1 X-0.672
G0 X-4.98
G1 X-0.418
G0 X-1.75
G0 X0.041Y0.1
G0 X1.75
G1 X0.418
G0 X4.985
G1 X0.672
G0 X4.305
G1 X0.096
G0 X32.502
G1 X10.112
G0 X8.142
G1 X0.58
G0 X8.407
G1 X9.796
G0 X15.924
G1 X0.653
G0 X0.992
G1 X0.485
G0 X2.698
G1 X0.537
G0 X7.707
G1 X0.13
G0 X3.599
G1 X0.485
G0 X1.755
G1 X0.563
G0 X0.914
G1 X0.21
G0 X0.804
G1 X0.705
G0 X4.831
G1 X0.427
G0 X1.75
G0 X-0.041Y0.1
G0 X-1.75
G1 X-0.427
G0 X-4.834
G1 X-0.705
G0 X-0.805
G1 X-0.188
G0 X-1.101
G1 X-0.174
G0 X-2.271
G1 X-0.079
G0 X-11.726
G1 X-0.322
G0 X-3.029
G1 X-0.08
G0 X-0.869
G1 X-0.765
G0 X-16.731
G1 X-8.439
G0 X-9.035
G1 X-0.582
G0 X-8.727
G1 X-8.81
G0 X-33.192
G1 X-0.233
G0 X-4.147
G1 X-0.673
G0 X-4.991
G1 X-0.418
G0 X-1.75
G0 X0.041Y0.1
G0 X1.75
G1 X0.418
G0 X4.996
G1 X0.673
G0 X4.062
G1 X0.297
G0 X34.004
G1 X7.232
G0 X9.468
G1 X0.582
G0 X9.857
G1 X6.653
G0 X17.786
G1 X0.932
G0 X19.37
G1 X0.158
G0 X0.815
G1 X0.705
G0 X4.836
G1 X0.427
G0 X1.75
G0 X-0.04Y0.1
G0 X-1.75
G1 X-0.428
G0 X-4.839
G1 X-0.705
G0 X-0.841
G1 X-0.115
G0 X-19.396
G1 X-0.779
G0 X-19.181
G1 X-4.198
G0 X-11.016
G1 X-0.584
G0 X-10.418
G1 X-5.226
G0 X-35.034
G1 X-0.34
G0 X-3.998
G1 X-0.674
G0 X-5.001
G1 X-0.418
G0 X-1.75
G0 X0.041Y0.1
G0 X1.75
G1 X0.418
G0 X5.006
G1 X0.674
G0 X3.943
G1 X0.374
G0 X36.824
G1 X1.6
G0 X12.228
G1 X0.586
G0 X9.417
G1 X0.016
G0 X25.078
G1 X0.593
G0 X19.466
G1 X0.044
G0 X0.867
G1 X0.705
G0 X4.842
G1 X0.428
G0 X1.75
G0 X-0.041Y0.1
G0 X-1.75
G1 X-0.428
G0 X-4.845
G1 X-0.705
G0 X-20.421
G1 X-0.379
G0 X-25.179
G1 X-0.142
G0 X-9.315
G1 X-0.587
G0 X-50.627
G1 X-0.39
G0 X-3.906
G1 X-0.674
G0 X-5.012
G1 X-0.418
G0 X-1.75
G0 X0.041Y0.1
G0 X1.75
G1 X0.418
G0 X5.017
G1 X0.674
G0 X3.871
G1 X0.403
G0 X50.602
G1 X0.588
G0 X9.216
G1 X0.266
G0 X25.312
G1 X0.102
G0 X20.496
G1 X0.705
G0 X4.848
G1 X0.428
G0 X1.75
G0 X-0.04Y0.1
G0 X-1.75
G1 X-0.429
G0 X-4.852
G1 X-0.704
G0 X-45.84
G1 X-0.316
G0 X-9.191
G1 X-0.589
G0 X-50.577
G1 X-0.417
G0 X-3.835
G1 X-0.675
G0 X-5.023
G1 X-0.418
G0 X-1.75
G0 X0.04Y0.1
G0 X1.75
G1 X0.419
G0 X5.028
G1 X0.675
G0 X3.805
G1 X0.43
G0 X50.547
G1 X0.591
G0 X9.178
G1 X0.352
G0 X45.772
G1 X0.704
G0 X4.855
G1 X0.429
G0 X1.75
G0 X-0.041Y0.1
G0 X-1.75
G1 X-0.428
G0 X-4.859
G1 X-0.704
G0 X-45.704
G1 X-0.38
G0 X-9.174
G1 X-0.591
G0 X-50.516
G1 X-0.441
G0 X-3.778
G1 X-0.676
G0 X-5.034
G1 X-0.418
G0 X-1.75
G0 X0.04Y0.1
G0 X1.75
G1 X0.419
G0 X5.039
G1 X0.676
G0 X3.752
G1 X0.451
G0 X50.486
G1 X0.592
G0 X9.184
G1 X0.393
G0 X45.636
G1 X0.704
G0 X4.862
G1 X0.428
G0 X1.75
G0 X-0.041Y0.1
G0 X-1.75
G1 X-0.428
G0 X-4.865
G1 X-0.704
G0 X-45.567
G1 X-0.408
G0 X-9.194
G1 X-0.593
G0 X-22.551
G1 X-0.527
G0 X-6.4
G1 X-0.531
G0 X-13.668
G1 X-0.528
G0 X-6.25
G1 X-0.458
G0 X-3.728
G1 X-0.676
G0 X-5.046
G1 X-0.418
G0 X-1.75
G0 X0.04Y0.1
G0 X1.75
G1 X0.419
G0 X5.051
G1 X0.676
G0 X3.711
G1 X0.46
G0 X3.765
G1 X0.144
G0 X2.202
G1 X0.782
G0 X4.506
G1 X0.023
G0 X8.885
G1 X0.786
G0 X6.145
G1 X0.782
G0 X16.093
G1 X0.296
G0 X6.015
G1 X0.593
G0 X9.205
G1 X0.422
G0 X45.498
G1 X0.704
G0 X4.868
G1 X0.429
G0 X1.75
G0 X-0.041Y0.1
G0 X-1.75
G1 X-0.429
G0 X-4.871
G1 X-0.704
G0 X-45.425
G1 X-0.433
G0 X-9.222
G1 X-0.594
G0 X-5.924
G1 X-0.455
G0 X-1.185
G1 X-0.044
G0 X-4.549
G1 X-0.044
G0 X-1.53
G1 X-0.511
G0 X-2.919
G1 X-0.185
G0 X-4.968
G1 X-0.407
G0 X-0.23
G1 X-0.296
G0 X-1.722
G1 X-0.185
G0 X-1.521
G1 X-0.511
G0 X-2.051
G1 X-0.415
G0 X-0.23
G1 X-0.295
G0 X-1.019
G1 X-0.044
G0 X-2.551
G1 X-0.151
G0 X-4.813
G1 X-0.411
G0 X-1.931
G1 X-0.242
G0 X-2.102
G1 X-0.407
G0 X-0.226
G1 X-0.299
G0 X-1.019
G1 X-0.044
G0 X-1.071
G1 X-0.236
G0 X-1.148
G1 X-0.185
G0 X-2.312
G1 X-0.467
G0 X-3.693
G1 X-0.677
G0 X-5.057
G1 X-0.418
G0 X-1.75
G0 X0.04Y0.1
G0 X1.75
G1 X0.419
G0 X5.062
G1 X0.677
G0 X3.677
G1 X0.473
G0 X2.042
G1 X0.629
G0 X0.865
G1 X0.317
G0 X0.822
G1 X0.572
G0 X0.729
G1 X0.3
G0 X0.333
G1 X0.376
G0 X1.858
G1 X0.97
G0 X1.289
G1 X1.783
G0 X1.69
G1 X0.267
G0 X0.65
G1 X0.34
G0 X0.511
G1 X0.298
G0 X1.23
G1 X0.101
G0 X0.899
G1 X0.572
G0 X0.729
G1 X0.307
G0 X0.326
G1 X0.37
G0 X1.86
G1 X0.326
G0 X0.135
G1 X0.311
G0 X1.158
G1 X0.628
G0 X1.509
G1 X0.309
G0 X0.325
G1 X0.376
G0 X0.909
G1 X0.26
G0 X0.657
G1 X0.341
G0 X0.975
G1 X0.427
G0 X1.091
G1 X0.628
G0 X0.836
G1 X0.246
G0 X1.497
G1 X0.325
G0 X0.135
G1 X0.312
G0 X1.16
G1 X0.571
G0 X1.498
G1 X0.427
G0 X1.08
G1 X0.116
G0 X0.901
G1 X0.571
G0 X0.888
G1 X0.523
G0 X5.866
G1 X0.594
G0 X9.242
G1 X0.443
G0 X45.351
G1 X0.704
G0 X4.874
G1 X0.429
G0 X1.75
G0 X-0.041Y0.1
G0 X-1.75
G1 X-0.429
G0 X-4.878
G1 X-0.703
G0 X-13.47
G1 X-0.1
G0 X-31.707
G1 X-0.454
G0 X-9.26
G1 X-0.595
G0 X-5.795
G1 X-0.58
G0 X-0.719
G1 X-0.393
G0 X-0.158
G1 X-0.318
G0 X-0.783
G1 X-0.245
G0 X-0.798
G1 X-0.735
G0 X-1.161
G1 X-0.395
G0 X-0.158
G1 X-0.317
G0 X-0.946
G1 X-0.3
G0 X-0.343
G1 X-0.316
G0 X-1.385
G1 X-0.375
G0 X-0.58
G1 X-0.361
G0 X-0.133
G1 X-0.394
G0 X-0.827
G1 X-0.735
G0 X-0.811
G1 X-0.416
G0 X-0.463
G1 X-0.503
G0 X-0.757
G1 X-0.335
G0 X-0.363
G1 X-0.33
G0 X-1.379
G1 X-0.361
G0 X-0.134
G1 X-0.394
G0 X-0.948
G1 X-0.301
G0 X-0.342
G1 X-0.316
G0 X-1.744
G1 X-0.319
G0 X-0.363
G1 X-0.33
G0 X-0.565
G1 X-0.395
G0 X-0.157
G1 X-0.319
G0 X-0.543
G1 X-0.556
G0 X-0.937
G1 X-0.414
G0 X-0.462
G1 X-0.416
G0 X-0.448
G1 X-0.518
G0 X-1.47
G1 X-1.942
G0 X-0.979
G1 X-1.3
G0 X-1.747
G1 X-0.335
G0 X-0.384
G1 X-0.309
G0 X-0.564
G1 X-0.396
G0 X-0.157
G1 X-0.319
G0 X-0.699
G1 X-0.363
G0 X-0.676
G1 X-0.362
G0 X-0.133
G1 X-0.394
G0 X-1.134
G1 X-0.477
G0 X-0.288
G1 X-0.469
G0 X-3.669
G1 X-0.678
G0 X-5.068
G1 X-0.418
G0 X-1.75
G0 X0.04Y0.1
G0 X1.75
G1 X0.419
G0 X5.074
G1 X0.677
G0 X3.662
G1 X0.466
G0 X0.358
G1 X0.543
G0 X0.883
G1 X0.372
G0 X0.507
G1 X0.216
G0 X0.529
G1 X0.394
G0 X0.621
G1 X0.354
G0 X0.371
G1 X0.352
G0 X0.448
G1 X0.362
G0 X0.37
G1 X0.309
G0 X1.672
G1 X1.499
G0 X0.847
G1 X0.592
G0 X0.195
G1 X1.15
G0 X1.387
G1 X0.385
G0 X0.022
G1 X0.281
G0 X0.325
G1 X0.401
G0 X0.487
G1 X0.494
G0 X0.786
G1 X0.712
G0 X0.394
G1 X0.355
G0 X0.37
G1 X0.353
G0 X0.448
G1 X0.371
G0 X0.361
G1 X0.287
G0 X1.676
G1 X0.325
G0 X0.457
G1 X0.316
G0 X0.769
G1 X0.372
G0 X0.507
G1 X0.216
G0 X1.274
G1 X0.371
G0 X0.361
G1 X0.309
G0 X0.661
G1 X0.386
G0 X0.022
G1 X0.275
G0 X0.33
G1 X0.401
G0 X0.741
G1 X0.354
G0 X0.251
G1 X0.368
G0 X0.608
G1 X0.373
G0 X0.507
G1 X0.214
G0 X0.458
G1 X0.397
G0 X1.32
G1 X0.325
G0 X0.458
G1 X0.316
G0 X0.777
G1 X0.349
G0 X0.376
G1 X0.352
G0 X0.923
G1 X0.354
G0 X0.251
G1 X0.368
G0 X0.6
G1 X0.317
G0 X0.703
G1 X0.349
G0 X0.376
G1 X0.348
G0 X0.616
G1 X0.475
G0 X5.865
G1 X0.596
G0 X9.284
G1 X0.459
G0 X31.471
G1 X0.592
G0 X13.142
G1 X0.702
G0 X4.881
G1 X0.43
G0 X1.75
G0 X-0.041Y0.1
G0 X-1.75
G1 X-0.43
G0 X-4.884
G1 X-0.702
G0 X-12.957
G1 X-0.471
G0 X-0.048
G1 X-0.306
G0 X-4.923
G1 X-1.043
G0 X-25.381
G1 X-0.462
G0 X-9.313
G1 X-0.596
G0 X-5.994
G1 X-0.29
G0 X-0.567
G1 X-0.329
G0 X-0.51
G1 X-0.377
G0 X-0.636
G1 X-0.37
G0 X-0.472
G1 X-0.238
G0 X-0.528
G1 X-0.381
G0 X-0.749
G1 X-0.332
G0 X-0.51
G1 X-0.377
G0 X-0.657
G1 X-0.313
G0 X-0.534
G1 X-0.367
G0 X-1.257
G1 X-0.401
G0 X-0.375
G1 X-0.177
G0 X-0.675
G1 X-0.389
G0 X-0.467
G1 X-0.238
G0 X-0.528
G1 X-0.38
G0 X-0.686
G1 X-0.389
G0 X-0.232
G1 X-0.201
G0 X-0.239
G1 X-0.371
G0 X-0.62
G1 X-0.278
G0 X-0.322
G1 X-0.39
G0 X-1.229
G1 X-0.174
G0 X-0.675
G1 X-0.388
G0 X-0.649
G1 X-0.312
G0 X-0.534
G1 X-0.367
G0 X-1.619
G1 X-0.272
G0 X-0.322
G1 X-0.39
G0 X-0.403
G1 X-0.332
G0 X-0.516
G1 X-0.371
G0 X-0.649
G1 X-0.455
G0 X-0.677
G1 X-0.552
G0 X-0.519
G1 X-0.388
G0 X-0.229
G1 X-0.205
G0 X-0.238
G1 X-0.372
G0 X-1.352
G1 X-0.724
G0 X-0.561
G1 X-0.611
G0 X-0.741
G1 X-1.664
G0 X-1.647
G1 X-0.278
G0 X-0.324
G1 X-0.388
G0 X-0.403
G1 X-0.332
G0 X-0.516
G1 X-0.371
G0 X-0.566
G1 X-0.415
G0 X-0.421
G1 X-0.174
G0 X-0.675
G1 X-0.388
G0 X-0.712
G1 X-0.57
G0 X-0.425
G1 X-0.467
G0 X-3.654
G1 X-0.677
G0 X-5.08
G1 X-0.419
G0 X-1.75
G0 X0.041Y0.1
G0 X1.75
G1 X0.418
G0 X5.086
G1 X0.678
G0 X3.647
G1 X0.469
G0 X0.476
G1 X0.582
G0 X0.574
G1 X0.41
G0 X0.791
G1 X0.157
G0 X0.345
G1 X0.421
G0 X0.523
G1 X0.389
G0 X0.626
G1 X0.317
G0 X0.377
G1 X0.441
G0 X0.242
G1 X0.253
G0 X1.644
G1 X0.165
G0 X0.445
G1 X1.155
G0 X0.696
G1 X0.62
G0 X0.725
G1 X0.479
G0 X1.362
G1 X0.396
G0 X0.315
G1 X0.19
G0 X0.15
G1 X0.374
G0 X0.544
G1 X0.612
G0 X0.599
G1 X0.447
G0 X0.633
G1 X0.389
G0 X0.626
G1 X0.317
G0 X0.376
G1 X0.453
G0 X0.231
G1 X0.244
G0 X1.618
G1 X0.395
G0 X0.587
G1 X0.299
G0 X0.544
G1 X0.41
G0 X0.792
G1 X0.156
G0 X1.202
G1 X0.453
G0 X0.231
G1 X0.252
G0 X0.611
G1 X0.396
G0 X0.316
G1 X0.193
G0 X0.146
G1 X0.375
G0 X0.643
G1 X0.417
G0 X0.713
G1 X0.171
G0 X0.33
G1 X0.41
G0 X0.792
G1 X0.157
G0 X0.315
G1 X0.408
G0 X1.229
G1 X0.395
G0 X0.587
G1 X0.299
G0 X0.561
G1 X0.396
G0 X0.62
G1 X0.316
G0 X0.61
G1 X0.417
G0 X0.713
G1 X0.171
G0 X0.38
G1 X0.388
G0 X0.582
G1 X0.396
G0 X0.619
G1 X0.319
G0 X6.758
G1 X0.597
G0 X9.341
G1 X0.468
G0 X2.22
G1 X0.32
G0 X1.151
G1 X0.071
G0 X3.809
G1 X0.075
G0 X2.726
G1 X0.179
G0 X2.442
G1 X0.315
G0 X3.108
G1 X0.316
G0 X2.357
G1 X0.315
G0 X3.365
G1 X0.075
G0 X2.343
G1 X1.402
G0 X1.643
G1 X0.316
G0 X2.711
G1 X0.306
G0 X0.253
G1 X0.398
G0 X0.815
G1 X0.214
G0 X11.805
G1 X0.702
G0 X4.887
G1 X0.43
G0 X1.75
G0 X-0.041Y0.1
G0 X-1.75
G1 X-0.43
G0 X-4.89
G1 X-0.702
G0 X-11.62
G1 X-0.449
G0 X-0.656
G1 X-0.366
G0 X-0.347
G1 X-0.299
G0 X-0.201
G1 X-0.199
G0 X-0.831
G1 X-0.329
G0 X-0.966
G1 X-0.686
G0 X-1.29
G1 X-1.694
G0 X-1.975
G1 X-0.542
G0 X-0.897
G1 X-0.184
G0 X-0.854
G1 X-0.149
G0 X-0.873
G1 X-0.686
G0 X-1.986
G1 X-0.686
G0 X-1.04
G1 X-0.485
G0 X-1.213
G1 X-0.686
G0 X-0.804
G1 X-0.241
G0 X-1.142
G1 X-0.319
G0 X-0.464
G1 X-0.394
G0 X-0.607
G1 X-0.322
G0 X-0.62
G1 X-0.546
G0 X-0.897
G1 X-0.184
G0 X-0.854
G1 X-0.149
G0 X-1.488
G1 X-0.271
G0 X-0.787
G1 X-0.683
G0 X-1.422
G1 X-0.145
G0 X-0.443
G1 X-0.472
G0 X-9.372
G1 X-0.597
G0 X-5.791
G1 X-0.04
G0 X-0.856
G1 X-0.312
G0 X-0.687
G1 X-0.408
G0 X-0.551
G1 X-0.402
G0 X-1.292
G1 X-0.44
G0 X-0.496
G1 X-0.317
G0 X-0.686
G1 X-0.409
G0 X-0.487
G1 X-0.315
G0 X-0.606
G1 X-0.428
G0 X-1.19
G1 X-0.425
G0 X-0.271
G1 X-0.127
G0 X-0.89
G1 X-0.409
G0 X-1.231
G1 X-0.439
G0 X-0.598
G1 X-0.367
G0 X-0.093
G1 X-0.193
G0 X-0.363
G1 X-0.409
G0 X-0.623
G1 X-0.237
G0 X-0.053
G1 X-0.546
G0 X-1.23
G1 X-0.127
G0 X-0.89
G1 X-0.408
G0 X-0.475
G1 X-0.315
G0 X-0.607
G1 X-0.427
G0 X-1.616
G1 X-0.238
G0 X-0.052
G1 X-0.546
G0 X-0.396
G1 X-0.317
G0 X-0.695
G1 X-0.4
G0 X-0.627
G1 X-0.44
G0 X-0.527
G1 X-0.676
G0 X-0.553
G1 X-0.367
G0 X-0.094
G1 X-0.192
G0 X-0.364
G1 X-0.408
G0 X-1.399
G1 X-0.29
G0 X-0.814
G1 X-0.629
G0 X-0.653
G1 X-0.836
G0 X-2.683
G1 X-0.237
G0 X-0.061
G1 X-0.538
G0 X-0.396
G1 X-0.317
G0 X-0.695
G1 X-0.399
G0 X-0.505
G1 X-0.417
G0 X-0.296
G1 X-0.127
G0 X-0.89
G1 X-0.408
G0 X-0.489
G1 X-0.577
G0 X-0.528
G1 X-0.47
G0 X-3.641
G1 X-0.678
G0 X-5.091
G1 X-0.419
G0 X-1.75
G0 X0.041Y0.1
G0 X1.75
G1 X0.418
G0 X5.097
G1 X0.679
G0 X3.633
G1 X0.473
G0 X0.557
G1 X0.584
G0 X0.414
G1 X0.602
G0 X1.137
G1 X0.415
G0 X0.491
G1 X0.41
G0 X0.746
G1 X0.308
G0 X0.46
G1 X0.726
G0 X2.916
G1 X0.657
G0 X0.679
G1 X0.638
G0 X0.857
G1 X0.093
G0 X1.47
G1 X0.413
G0 X0.411
G1 X0.188
G0 X0.052
G1 X0.361
G0 X0.561
G1 X0.458
G0 X0.065
G1 X0.213
G0 X0.456
G1 X0.442
G0 X0.616
G1 X0.41
G0 X0.746
G1 X0.308
G0 X0.46
G1 X0.726
G0 X1.612
G1 X0.455
G0 X0.625
G1 X0.326
G0 X0.413
G1 X0.602
G0 X2.172
G1 X0.726
G0 X0.629
G1 X0.413
G0 X0.412
G1 X0.192
G0 X0.047
G1 X0.361
G0 X0.558
G1 X0.464
G0 X1.231
G1 X0.603
G0 X1.117
G1 X0.442
G0 X1.156
G1 X0.455
G0 X0.624
G1 X0.326
G0 X0.428
G1 X0.415
G0 X0.742
G1 X0.307
G0 X0.416
G1 X0.464
G0 X1.305
G1 X0.424
G0 X0.52
G1 X0.415
G0 X0.741
G1 X0.309
G0 X0.638
G1 X0.216
G0 X5.768
G1 X0.598
G0 X9.41
G1 X0.47
G0 X0.267
G1 X0.515
G0 X1.098
G1 X0.365
G0 X0.24
G1 X0.317
G0 X0.546
G1 X0.391
G0 X1.397
G1 X0.289
G0 X0.698
G1 X0.345
G0 X0.758
G1 X0.671
G0 X0.459
G1 X0.546
G0 X0.426
G1 X0.417
G0 X0.463
G1 X0.43
G0 X0.909
G1 X0.587
G0 X0.518
G1 X0.365
G0 X0.239
G1 X0.319
G0 X0.933
G1 X0.776
G0 X0.792
G1 X0.365
G0 X0.24
G1 X0.318
G0 X1.749
G1 X0.365
G0 X0.24
G1 X0.317
G0 X0.664
G1 X0.289
G0 X0.698
G1 X0.344
G0 X0.759
G1 X0.67
G0 X1.814
G1 X0.418
G0 X0.592
G1 X0.911
G0 X1.063
G1 X0.365
G0 X0.239
G1 X0.319
G0 X0.693
G1 X0.556
G0 X0.55
G1 X0.342
G0 X0.263
G1 X0.313
G0 X0.386
G1 X0.332
G0 X0.603
G1 X0.557
G0 X11.481
G1 X0.702
G0 X4.893
G1 X0.429
G0 X1.75
G0 X-0.041Y0.1
G0 X-1.75
G1 X-0.429
G0 X-4.896
G1 X-0.701
G0 X-11.37
G1 X-0.605
G0 X-0.593
G1 X-0.302
G0 X-0.367
G1 X-0.368
G0 X-0.309
G1 X-0.414
G0 X-0.379
G1 X-0.239
G0 X-0.036
G1 X-0.427
G0 X-0.505
G1 X-0.21
G0 X-0.529
G1 X-0.375
G0 X-0.863
G1 X-0.764
G0 X-0.876
G1 X-0.47
G0 X-2.023
G1 X-0.423
G0 X-0.658
G1 X-0.466
G0 X-0.581
G1 X-0.409
G0 X-0.497
G1 X-0.21
G0 X-0.529
G1 X-0.375
G0 X-1.558
G1 X-0.21
G0 X-0.529
G1 X-0.375
G0 X-0.59
G1 X-0.343
G0 X-0.296
G1 X-0.36
G0 X-0.721
G1 X-0.21
G0 X-0.529
G1 X-0.374
G0 X-0.387
G1 X-0.135
G0 X-0.115
G1 X-0.462
G0 X-0.771
G1 X-0.501
G0 X-0.494
G1 X-0.398
G0 X-0.309
G1 X-0.27
G0 X-0.063
G1 X-0.374
G0 X-0.676
G1 X-0.423
G0 X-0.658
G1 X-0.466
G0 X-0.582
G1 X-0.408
G0 X-1.323
G1 X-0.398
G0 X-0.445
G1 X-0.211
G0 X-0.529
G1 X-0.375
G0 X-0.861
G1 X-0.541
G0 X-0.371
G1 X-0.467
G0 X-9.448
G1 X-0.598
G0 X-5.745
G1 X-0.292
G0 X-0.536
G1 X-0.303
G0 X-0.764
G1 X-0.441
G0 X-0.489
G1 X-0.446
G0 X-1.317
G1 X-0.472
G0 X-0.357
G1 X-0.306
G0 X-0.765
G1 X-0.441
G0 X-0.384
G1 X-0.322
G0 X-0.642
G1 X-0.47
G0 X-1.125
G1 X-0.469
G0 X-0.921
G1 X-0.336
G0 X-0.04
G1 X-0.442
G0 X-1.235
G1 X-0.472
G0 X-0.522
G1 X-0.357
G0 X-0.026
G1 X-0.177
G0 X-0.45
G1 X-0.426
G0 X-0.37
G1 X-0.757
G0 X-2.198
G1 X-0.336
G0 X-0.04
G1 X-0.442
G0 X-0.369
G1 X-0.321
G0 X-0.642
G1 X-0.47
G0 X-1.356
G1 X-0.757
G0 X-0.654
G1 X-0.306
G0 X-0.761
G1 X-0.444
G0 X-0.594
G1 X-0.446
G0 X-0.387
G1 X-0.218
G0 X-0.102
G1 X-0.483
G0 X-0.558
G1 X-0.356
G0 X-0.027
G1 X-0.176
G0 X-0.451
G1 X-0.426
G0 X-2.336
G1 X-0.633
G0 X-0.726
G1 X-0.561
G0 X-2.794
G1 X-0.757
G0 X-0.654
G1 X-0.306
G0 X-0.76
G1 X-0.445
G0 X-0.47
G1 X-0.421
G0 X-0.937
G1 X-0.336
G0 X-0.04
G1 X-0.442
G0 X-0.36
G1 X-0.573
G0 X-0.585
G1 X-0.475
G0 X-3.627
G1 X-0.678
G0 X-5.103
G1 X-0.419
G0 X-1.75
G0 X0.041Y0.1
G0 X1.75
G1 X0.418
G0 X5.109
G1 X0.679
G0 X3.62
G1 X0.507
G0 X0.582
G1 X0.557
G0 X0.33
G1 X0.452
G0 X0.189
G1 X0.318
G0 X0.795
G1 X0.426
G0 X0.454
G1 X0.477
G0 X0.76
G1 X0.303
G0 X0.826
G1 X0.252
G0 X3.244
G1 X0.432
G0 X0.827
G1 X0.62
G0 X2.239
G1 X0.458
G0 X0.47
G1 X0.155
G0 X0.014
G1 X0.353
G0 X0.551
G1 X0.511
G0 X0.133
G1 X0.226
G0 X0.319
G1 X0.462
G0 X0.564
G1 X0.477
G0 X0.76
G1 X0.303
G0 X0.826
G1 X0.252
G0 X1.67
G1 X0.5
G0 X0.645
G1 X0.316
G0 X0.344
G1 X0.451
G0 X0.193
G1 X0.314
G0 X2.246
G1 X0.252
G0 X0.681
G1 X0.458
G0 X0.471
G1 X0.155
G0 X0.013
G1 X0.353
G0 X0.495
G1 X0.485
G0 X1.24
G1 X0.452
G0 X0.193
G1 X0.314
G0 X0.79
G1 X0.503
G0 X1.079
G1 X0.5
G0 X0.646
G1 X0.316
G0 X0.346
G1 X0.464
G0 X0.774
G1 X0.302
G0 X0.323
G1 X0.484
G0 X1.315
G1 X0.469
G0 X0.461
G1 X0.464
G0 X0.774
G1 X0.305
G0 X0.473
G1 X0.333
G0 X5.722
G1 X0.598
G0 X9.487
G1 X0.467
G0 X0.43
G1 X0.565
G0 X0.702
G1 X0.39
G0 X0.69
G1 X0.173
G0 X0.369
G1 X0.404
G0 X1.279
G1 X0.487
G0 X0.532
G1 X0.523
G0 X0.58
G1 X0.42
G0 X0.655
G1 X0.374
G0 X0.248
G1 X0.202
G0 X0.22
G1 X0.387
G0 X0.522
G1 X0.559
G0 X0.667
G1 X0.454
G0 X0.637
G1 X0.39
G0 X0.69
G1 X0.177
G0 X0.55
G1 X0.386
G0 X0.55
G1 X0.23
G0 X0.451
G1 X0.39
G0 X0.689
G1 X0.178
G0 X1.415
G1 X0.39
G0 X0.69
G1 X0.177
G0 X0.378
G1 X0.487
G0 X0.532
G1 X0.523
G0 X0.58
G1 X0.42
G0 X2.034
G1 X0.493
G0 X1.032
G1 X0.675
G0 X0.733
G1 X0.39
G0 X0.69
G1 X0.177
G0 X0.367
G1 X0.462
G0 X0.13
G1 X0.218
G0 X0.264
G1 X0.438
G0 X0.385
G1 X0.39
G0 X0.319
G1 X0.275
G0 X0.604
G1 X0.598
G0 X11.314
G1 X0.701
G0 X4.899
G1 X0.429
G0 X1.75
G0 X-0.041Y0.1
G0 X-1.75
G1 X-0.429
G0 X-4.902
G1 X-0.701
G0 X-11.37
G1 X-0.473
G0 X-0.622
G1 X-0.25
G0 X-0.23
G1 X-0.451
G0 X-0.446
G1 X-0.456
G0 X-0.168
G1 X-0.197
G0 X-0.21
G1 X-0.476
G0 X-0.291
G1 X-0.154
G0 X-0.802
G1 X-0.409
G0 X-0.612
G1 X-0.618
G0 X-1.146
G1 X-0.489
G0 X-2.06
G1 X-0.434
G0 X-0.509
G1 X-0.571
G0 X-0.49
G1 X-0.555
G0 X-0.294
G1 X-0.155
G0 X-0.802
G1 X-0.409
G0 X-1.306
G1 X-0.155
G0 X-0.802
G1 X-0.409
G0 X-0.321
G1 X-0.165
G0 X-0.731
G1 X-0.419
G0 X-0.422
G1 X-0.155
G0 X-0.801
G1 X-0.41
G0 X-0.616
G1 X-0.447
G0 X-0.591
G1 X-0.619
G0 X-0.544
G1 X-0.375
G0 X-0.142
G1 X-0.191
G0 X-0.321
G1 X-0.398
G0 X-0.639
G1 X-0.434
G0 X-0.509
G1 X-0.571
G0 X-0.49
G1 X-0.556
G0 X-1.245
G1 X-0.409
G0 X-0.309
G1 X-0.155
G0 X-0.801
G1 X-0.41
G0 X-0.571
G1 X-0.576
G0 X-0.481
G1 X-0.469
G0 X-9.526
G1 X-0.598
G0 X-5.695
G1 X-0.348
G0 X-0.456
G1 X-0.298
G0 X-0.753
G1 X-0.491
G0 X-0.444
G1 X-0.491
G0 X-1.32
G1 X-0.487
G0 X-0.305
G1 X-0.301
G0 X-0.754
G1 X-0.491
G0 X-0.326
G1 X-0.335
G0 X-0.617
G1 X-0.528
G0 X-1.044
G1 X-0.535
G0 X-0.696
G1 X-0.316
G0 X-0.281
G1 X-0.467
G0 X-1.244
G1 X-0.487
G0 X-0.479
G1 X-0.484
G0 X-0.491
G1 X-0.472
G0 X-0.72
G1 X-0.262
G0 X-2.105
G1 X-0.316
G0 X-0.281
G1 X-0.466
G0 X-0.317
G1 X-0.336
G0 X-0.616
G1 X-0.529
G0 X-1.703
G1 X-0.261
G0 X-0.78
G1 X-0.301
G0 X-0.748
G1 X-0.496
G0 X-0.548
G1 X-0.471
G0 X-0.25
G1 X-0.249
G0 X-0.161
G1 X-0.529
G0 X-0.554
G1 X-0.484
G0 X-0.491
G1 X-0.472
G0 X-2.159
G1 X-0.614
G0 X-0.923
G1 X-0.388
G0 X-3.317
G1 X-0.262
G0 X-0.779
G1 X-0.301
G0 X-0.748
G1 X-0.496
G0 X-0.456
G1 X-0.426
G0 X-0.694
G1 X-0.316
G0 X-0.282
G1 X-0.466
G0 X-0.311
G1 X-0.546
G0 X-0.562
G1 X-0.54
G0 X-3.614
G1 X-0.679
G0 X-5.114
G1 X-0.419
G0 X-1.75
G0 X0.041Y0.1
G0 X1.75
G1 X0.418
G0 X5.12
G1 X0.68
G0 X3.606
G1 X0.573
G0 X0.541
G1 X0.529
G0 X0.306
G1 X0.481
G0 X0.348
G1 X0.314
G0 X0.613
G1 X0.427
G0 X0.457
G1 X0.514
G0 X0.726
G1 X0.3
G0 X0.735
G1 X0.284
G0 X3.359
G1 X0.345
G0 X1.045
G1 X0.608
G0 X2.082
G1 X0.482
G0 X0.501
G1 X0.457
G0 X0.557
G1 X0.547
G0 X0.189
G1 X0.29
G0 X0.165
G1 X0.478
G0 X0.532
G1 X0.514
G0 X0.726
G1 X0.3
G0 X0.735
G1 X0.284
G0 X1.741
G1 X0.548
G0 X0.587
G1 X0.343
G0 X0.308
G1 X0.484
G0 X0.351
G1 X0.308
G0 X1.977
G1 X0.284
G0 X0.758
G1 X0.482
G0 X0.501
G1 X0.457
G0 X0.463
G1 X0.504
G0 X1.239
G1 X0.484
G0 X0.351
G1 X0.308
G0 X0.621
G1 X0.596
G0 X0.59
G1 X0.175
G0 X0.224
G1 X0.548
G0 X0.587
G1 X0.343
G0 X0.318
G1 X0.52
G0 X0.72
G1 X0.3
G0 X0.299
G1 X0.503
G0 X1.315
G1 X0.51
G0 X0.426
G1 X0.519
G0 X0.721
G1 X0.303
G0 X0.452
G1 X0.355
G0 X5.662
G1 X0.598
G0 X9.565
G1 X0.47
G0 X0.531
G1 X0.577
G0 X0.483
G1 X0.408
G0 X0.897
G1 X0.111
G0 X0.282
G1 X0.415
G0 X1.232
G1 X0.603
G0 X0.448
G1 X0.617
G0 X0.45
G1 X0.46
G0 X0.614
G1 X0.409
G0 X0.367
G1 X0.192
G0 X0.09
G1 X0.366
G0 X0.555
G1 X0.457
G0 X0.005
G1 X0.218
G0 X0.522
G1 X0.438
G0 X0.616
G1 X0.408
G0 X0.898
G1 X0.11
G0 X0.335
G1 X0.441
G0 X1.232
G1 X0.408
G0 X0.898
G1 X0.11
G0 X1.255
G1 X0.409
G0 X0.898
G1 X0.11
G0 X0.259
G1 X0.603
G0 X0.448
G1 X0.617
G0 X0.45
G1 X0.459
G0 X2.063
G1 X0.486
G0 X1.233
G1 X0.575
G0 X0.534
G1 X0.408
G0 X0.899
G1 X0.11
G0 X0.246
G1 X0.485
G0 X0.276
G1 X0.189
G0 X0.091
G1 X0.46
G0 X0.545
G1 X0.55
G0 X0.04
G1 X0.236
G0 X0.653
G1 X0.278
G0 X11.493
G1 X0.7
G0 X4.906
G1 X0.429
G0 X1.75
G0 X-0.041Y0.1
G0 X-1.75
G1 X-0.429
G0 X-4.909
G1 X-0.699
G0 X-12.363
G1 X-0.724
G0 X-0.645
G1 X-0.463
G1 X-0.212
G0 X-0.337
G1 X-0.494
G0 X-1.056
G1 X-0.619
G0 X-0.473
G1 X-0.536
G0 X-1.3
G1 X-0.482
G0 X-2.066
G1 X-0.482
G0 X-0.392
G1 X-0.203
G0 X-0.012
G1 X-0.443
G0 X-0.406
G1 X-0.184
G0 X-0.025
G1 X-0.443
G0 X-1.078
G1 X-0.619
G0 X-2.053
G1 X-0.619
G0 X-1.231
G1 X-0.466
G0 X-1.108
G1 X-0.618
G0 X-0.6
G1 X-0.442
G0 X-0.452
G1 X-0.213
G0 X-0.068
G1 X-0.459
G0 X-0.561
G1 X-0.36
G0 X-0.051
G1 X-0.186
G0 X-0.415
G1 X-0.413
G0 X-0.595
G1 X-0.483
G0 X-0.392
G1 X-0.202
G0 X-0.013
G1 X-0.443
G0 X-0.406
G1 X-0.183
G0 X-0.026
G1 X-0.443
G0 X-1.201
G1 X-0.445
G0 X-1.102
G1 X-0.619
G0 X-0.415
G1 X-0.578
G0 X-0.559
G1 X-0.472
G0 X-9.603
G1 X-0.6
G0 X-5.628
G1 X-0.359
G0 X-0.468
G1 X-0.297
G0 X-0.676
G1 X-0.554
G0 X-0.408
G1 X-0.53
G0 X-0.525
G1 X-0.151
G0 X-0.629
G1 X-0.524
G0 X-0.296
G1 X-0.3
G0 X-0.676
G1 X-0.554
G0 X-0.316
G1 X-0.344
G0 X-0.558
G1 X-0.567
G0 X-0.189
G1 X-0.352
G0 X-0.392
G1 X-0.184
G0 X-0.015
G1 X-0.459
G0 X-0.567
G1 X-0.317
G0 X-0.377
G1 X-0.492
G0 X-0.468
G1 X-0.15
G0 X-0.629
G1 X-0.524
G0 X-0.447
G1 X-0.435
G0 X-0.475
G1 X-0.522
G0 X-0.788
G1 X-0.318
G0 X-1.866
G1 X-0.316
G0 X-0.378
G1 X-0.492
G0 X-0.323
G1 X-0.344
G0 X-0.557
G1 X-0.568
G0 X-1.769
G1 X-0.318
G0 X-0.693
G1 X-0.3
G0 X-0.677
G1 X-0.553
G0 X-0.515
G1 X-0.475
G0 X-0.091
G1 X-0.319
G0 X-0.23
G1 X-0.564
G0 X-0.56
G1 X-0.435
G0 X-0.476
G1 X-0.522
G0 X-2
G1 X-0.607
G0 X-1.169
G1 X-0.324
G0 X-3.368
G1 X-0.318
G0 X-0.693
G1 X-0.3
G0 X-0.677
G1 X-0.553
G0 X-0.449
G1 X-0.437
G0 X-0.551
G1 X-0.309
G0 X-0.392
G1 X-0.486
G0 X-0.324
G1 X-0.506
G0 X-0.519
G1 X-0.605
G0 X-3.6
G1 X-0.68
G0 X-5.125
G1 X-0.419
G0 X-1.75
G0 X0.041Y0.1
G0 X1.75
G1 X0.419
G0 X5.131
G1 X0.68
G0 X3.593
G1 X0.46
G0 X0.009
G1 X0.177
G0 X0.479
G1 X0.487
G0 X0.347
G1 X0.512
G0 X0.395
G1 X0.298
G0 X0.518
G1 X0.443
G0 X0.464
G1 X0.58
G0 X0.607
G1 X0.301
G0 X0.656
G1 X0.365
G0 X3.341
G1 X0.308
G0 X1.319
G1 X0.605
G0 X1.923
G1 X0.56
G0 X0.446
G1 X0.419
G0 X0.567
G1 X0.575
G0 X0.27
G1 X0.842
G0 X0.512
G1 X0.579
G0 X0.608
G1 X0.301
G0 X0.655
G1 X0.366
G0 X1.808
G1 X0.595
G0 X0.502
G1 X0.345
G0 X0.337
G1 X0.503
G0 X0.401
G1 X0.301
G0 X1.773
G1 X0.366
G0 X0.816
G1 X0.559
G0 X0.446
G1 X0.419
G0 X0.454
G1 X0.53
G0 X0.478
G1 X0.371
G0 X0.391
G1 X0.503
G0 X0.401
G1 X0.3
G0 X0.537
G1 X0.463
G0 X0.085
G1 X0.205
G0 X0.189
G1 X0.436
G0 X0.238
G1 X0.594
G0 X0.502
G1 X0.345
G0 X0.337
G1 X0.571
G0 X0.616
G1 X0.301
G0 X0.333
G1 X0.531
G0 X0.477
G1 X0.371
G0 X0.432
G1 X0.559
G0 X0.402
G1 X0.571
G0 X0.616
G1 X0.302
G0 X0.484
G1 X0.362
G0 X5.596
G1 X0.6
G0 X9.642
G1 X0.476
G0 X0.585
G1 X0.573
G0 X0.358
G1 X0.442
G0 X0.048
G1 X0.337
G0 X0.912
G1 X0.475
G0 X1.174
G1 X0.447
G0 X0.063
G1 X0.187
G0 X0.369
G1 X0.442
G0 X0.053
G1 X0.203
G0 X0.345
G1 X0.491
G0 X0.576
G1 X0.427
G0 X0.452
G1 X0.175
G0 X0.026
G1 X0.356
G0 X0.558
G1 X0.485
G0 X0.103
G1 X0.218
G0 X0.383
G1 X0.448
G0 X0.577
G1 X0.443
G0 X0.048
G1 X0.336
G0 X0.889
G1 X0.472
G0 X1.236
G1 X0.442
G0 X0.048
G1 X0.337
G0 X1.845
G1 X0.442
G0 X0.048
G1 X0.338
G0 X0.89
G1 X0.446
G0 X0.063
G1 X0.188
G0 X0.369
G1 X0.442
G0 X0.053
G1 X0.203
G0 X0.344
G1 X0.492
G0 X2.068
G1 X0.479
G0 X1.354
G1 X0.51
G0 X0.415
G1 X0.442
G0 X0.048
G1 X0.337
G0 X0.864
G1 X0.5
G0 X0.384
G1 X0.622
G0 X0.875
G1 X0.744
G0 X12.046
G1 X0.699
G0 X4.912
G1 X0.429
G0 X1.75
G0 X-0.041Y0.1
G0 X-1.75
G1 X-0.429
G0 X-4.915
G1 X-0.699
G0 X-12.296
G1 X-0.252
G0 X-1.032
G1 X-0.59
G0 X-0.427
G1 X-0.505
G0 X-0.731
G1 X-0.312
G0 X-0.199
G1 X-0.451
G0 X-0.383
G1 X-0.487
G0 X-1.396
G1 X-0.475
G0 X-2.071
G1 X-0.499
G0 X-0.295
G1 X-0.207
G0 X-0.087
G1 X-0.447
G0 X-0.332
G1 X-0.193
G0 X-0.098
G1 X-0.451
G0 X-0.761
G1 X-0.312
G0 X-0.199
G1 X-0.451
G0 X-1.71
G1 X-0.318
G0 X-0.193
G1 X-0.451
G0 X-1.241
G1 X-0.484
G0 X-0.737
G1 X-0.318
G0 X-0.193
G1 X-0.451
G0 X-0.56
G1 X-0.462
G0 X-0.318
G1 X-0.225
G0 X-0.135
G1 X-0.511
G0 X-0.552
G1 X-0.353
G0 X-0.013
G1 X-0.154
G0 X-0.471
G1 X-0.459
G0 X-0.557
G1 X-0.499
G0 X-0.295
G1 X-0.207
G0 X-0.087
G1 X-0.446
G0 X-0.333
G1 X-0.191
G0 X-0.099
G1 X-0.452
G0 X-1.147
G1 X-0.497
G0 X-0.787
G1 X-0.318
G0 X-0.193
G1 X-0.451
G0 X-0.331
G1 X-0.555
G0 X-0.582
G1 X-0.508
G0 X-9.681
G1 X-0.6
G0 X-5.555
G1 X-0.375
G0 X-0.511
G1 X-0.3
G0 X-0.525
G1 X-0.61
G0 X-0.4
G1 X-0.588
G0 X-0.404
G1 X-0.326
G0 X-0.521
G1 X-0.541
G0 X-0.376
G1 X-0.302
G0 X-0.525
G1 X-0.609
G0 X-0.363
G1 X-0.36
G0 X-0.43
G1 X-0.621
G0 X-0.322
G1 X-0.458
G0 X-0.004
G1 X-0.236
G0 X-0.157
G1 X-0.465
G0 X-0.522
G1 X-0.295
G0 X-0.372
G1 X-0.527
G0 X-0.394
G1 X-0.326
G0 X-0.521
G1 X-0.541
G0 X-0.457
G1 X-0.408
G0 X-0.416
G1 X-0.578
G0 X-0.381
G1 X-0.146
G0 X-0.33
G1 X-0.421
G0 X-1.695
G1 X-0.295
G0 X-0.372
G1 X-0.526
G0 X-0.367
G1 X-0.36
G0 X-0.43
G1 X-0.621
G0 X-1.368
G1 X-0.146
G0 X-0.33
G1 X-0.42
G0 X-0.622
G1 X-0.302
G0 X-0.521
G1 X-0.613
G0 X-0.499
G1 X-0.808
G0 X-0.316
G1 X-0.585
G0 X-0.571
G1 X-0.407
G0 X-0.416
G1 X-0.578
G0 X-1.889
G1 X-0.582
G0 X-1.473
G1 X-0.321
G0 X-2.797
G1 X-0.145
G0 X-0.331
G1 X-0.42
G0 X-0.622
G1 X-0.302
G0 X-0.521
G1 X-0.614
G0 X-0.482
G1 X-0.446
G0 X-0.504
G1 X-0.279
G0 X-0.383
G1 X-0.532
G0 X-0.388
G1 X-0.471
G0 X-0.419
G1 X-0.194
G0 X-0.051
G1 X-0.458
G0 X-3.584
G1 X-0.68
G0 X-5.137
G1 X-0.419
G0 X-1.75
G0 X0.041Y0.1
G0 X1.75
G1 X0.419
G0 X5.142
G1 X0.681
G0 X3.575
G1 X0.456
G0 X0.093
G1 X0.21
G0 X0.359
G1 X0.453
G0 X0.444
G1 X0.566
G0 X0.322
G1 X0.271
G0 X0.5
G1 X0.45
G0 X0.501
G1 X0.677
G0 X0.396
G1 X0.303
G0 X0.62
G1 X0.464
G0 X0.33
G1 X0.165
G0 X1.861
G1 X0.456
G0 X0.324
G1 X0.346
G0 X1.659
G1 X0.571
G0 X1.855
G1 X0.645
G0 X0.338
G1 X0.396
G0 X0.573
G1 X0.596
G0 X0.373
G1 X0.763
G0 X0.485
G1 X0.677
G0 X0.396
G1 X0.303
G0 X0.62
G1 X0.464
G0 X0.33
G1 X0.165
G0 X1.374
G1 X0.645
G0 X0.351
G1 X0.371
G0 X0.42
G1 X0.552
G0 X0.326
G1 X0.281
G0 X1.652
G1 X0.464
G0 X0.329
G1 X0.166
G0 X0.391
G1 X0.646
G0 X0.338
G1 X0.395
G0 X0.461
G1 X0.573
G0 X0.518
G1 X0.296
G0 X0.42
G1 X0.552
G0 X0.326
G1 X0.281
G0 X0.515
G1 X0.48
G0 X0.213
G1 X0.595
G0 X0.387
G1 X0.645
G0 X0.35
G1 X0.371
G0 X0.4
G1 X0.665
G0 X0.408
G1 X0.303
G0 X0.428
G1 X0.573
G0 X0.518
G1 X0.296
G0 X0.397
G1 X0.614
G0 X0.391
G1 X0.664
G0 X0.409
G1 X0.302
G0 X0.549
G1 X0.384
G0 X5.512
G1 X0.6
G0 X9.72
G1 X0.54
G0 X0.562
G1 X0.549
G0 X0.308
G1 X0.467
G0 X0.283
G1 X0.315
G0 X0.695
G1 X0.546
G0 X1.093
G1 X0.466
G0 X0.132
G1 X0.194
G0 X0.297
G1 X0.455
G0 X0.111
G1 X0.211
G0 X0.264
G1 X0.488
G0 X0.556
G1 X0.472
G0 X0.491
G1 X0.483
G0 X0.556
G1 X0.528
G0 X0.162
G1 X0.249
G0 X0.249
G1 X0.471
G0 X0.539
G1 X0.465
G0 X0.284
G1 X0.315
G0 X0.628
G1 X0.487
G0 X1.244
G1 X0.466
G0 X0.284
G1 X0.315
G0 X1.607
G1 X0.467
G0 X0.283
G1 X0.315
G0 X0.664
G1 X0.466
G0 X0.129
G1 X0.197
G0 X0.297
G1 X0.454
G0 X0.112
G1 X0.211
G0 X0.264
G1 X0.488
G0 X2.074
G1 X0.473
G0 X1.425
G1 X0.462
G0 X0.363
G1 X0.467
G0 X0.282
G1 X0.316
G0 X0.644
G1 X0.5
G0 X0.464
G1 X0.562
G0 X0.978
G1 X0.261
G0 X12.255
G1 X0.699
G0 X4.918
G1 X0.429
G0 X1.75
G0 X-0.041Y0.1
G0 X-1.75
G1 X-0.429
G0 X-4.921
G1 X-0.698
G0 X-12.209
G1 X-0.285
G0 X-0.912
G1 X-0.545
G0 X-0.484
G1 X-0.505
G0 X-0.575
G1 X-0.308
G0 X-0.351
G1 X-0.484
G0 X-0.349
G1 X-0.441
G0 X-1.446
G1 X-0.475
G0 X-2.073
G1 X-0.482
G0 X-0.231
G1 X-0.216
G0 X-0.134
G1 X-0.457
G0 X-0.26
G1 X-0.203
G0 X-0.168
G1 X-0.473
G0 X-0.593
G1 X-0.308
G0 X-0.35
G1 X-0.484
G0 X-1.53
G1 X-0.313
G0 X-0.348
G1 X-0.481
G0 X-1.24
G1 X-0.503
G0 X-0.539
G1 X-0.313
G0 X-0.348
G1 X-0.481
G0 X-0.522
G1 X-0.479
G0 X-0.165
G1 X-0.29
G0 X-0.189
G1 X-0.546
G0 X-0.558
G1 X-0.457
G0 X-0.501
G1 X-0.481
G0 X-0.555
G1 X-0.482
G0 X-0.232
G1 X-0.215
G0 X-0.134
G1 X-0.456
G0 X-0.261
G1 X-0.202
G0 X-0.169
G1 X-0.473
G0 X-0.281
G1 X-0.175
G0 X-0.586
G1 X-0.599
G0 X-0.622
G1 X-0.313
G0 X-0.348
G1 X-0.482
G0 X-0.302
G1 X-0.533
G0 X-0.541
G1 X-0.572
G0 X-9.759
G1 X-0.6
G0 X-5.47
G1 X-0.392
G0 X-0.595
G1 X-0.303
G0 X-0.259
G1 X-0.721
G0 X-0.425
G1 X-0.606
G0 X-0.438
G1 X-0.243
G0 X-0.496
G1 X-0.582
G0 X-0.519
G1 X-0.304
G0 X-0.259
G1 X-0.72
G0 X-0.468
G1 X-0.376
G0 X-0.245
G1 X-0.693
G0 X-0.454
G1 X-0.502
G0 X-0.258
G1 X-0.493
G0 X-0.522
G1 X-0.27
G0 X-0.219
G1 X-0.624
G0 X-0.479
G1 X-0.244
G0 X-0.495
G1 X-0.582
G0 X-0.496
G1 X-0.384
G0 X-0.256
G1 X-0.714
G0 X-0.424
G1 X-0.187
G0 X-0.303
G1 X-0.505
G0 X-1.626
G1 X-0.27
G0 X-0.219
G1 X-0.623
G0 X-0.48
G1 X-0.376
G0 X-0.246
G1 X-0.692
G0 X-1.404
G1 X-0.187
G0 X-0.303
G1 X-0.505
G0 X-0.632
G1 X-0.305
G0 X-0.24
G1 X-0.738
G0 X-0.488
G1 X-0.724
G0 X-0.433
G1 X-0.602
G0 X-0.58
G1 X-0.385
G0 X-0.256
G1 X-0.714
G0 X-1.836
G1 X-0.547
G0 X-1.906
G1 X-1.051
G0 X-1.763
G1 X-0.188
G0 X-0.303
G1 X-0.505
G0 X-0.632
G1 X-0.304
G0 X-0.24
G1 X-0.739
G0 X-0.543
G1 X-0.455
G0 X-0.507
G1 X-0.271
G0 X-0.212
G1 X-0.631
G0 X-0.515
G1 X-0.42
G0 X-0.299
G1 X-0.215
G0 X-0.139
G1 X-0.461
G0 X-3.567
G1 X-0.681
G0 X-5.147
G1 X-0.419
G0 X-1.75
G0 X0.04Y0.1
G0 X1.75
G1 X0.419
G0 X5.153
G1 X0.682
G0 X3.551
G1 X0.477
G0 X0.196
G1 X0.215
G0 X0.218
G1 X0.399
G0 X0.598
G1 X0.768
G0 X0.006
G1 X0.275
G0 X0.525
G1 X0.457
G0 X0.592
G1 X0.838
G0 X0.023
G1 X0.291
G0 X0.691
G1 X0.598
G0 X0.147
G1 X0.255
G0 X1.724
G1 X0.863
G0 X2.209
G1 X0.531
G0 X1.855
G1 X0.83
G0 X0.09
G1 X0.309
G0 X0.657
G1 X0.608
G0 X0.512
G1 X0.598
G0 X0.567
G1 X0.838
G0 X0.023
G1 X0.291
G0 X0.691
G1 X0.598
G0 X0.147
G1 X0.255
G0 X1.462
G1 X0.738
G0 X0.127
G1 X0.382
G0 X0.552
G1 X0.769
G0 X0.004
G1 X0.275
G0 X1.622
G1 X0.598
G0 X0.147
G1 X0.255
G0 X0.502
G1 X0.83
G0 X0.09
G1 X0.308
G0 X0.608
G1 X0.609
G0 X0.404
G1 X0.221
G0 X0.565
G1 X0.77
G0 X0.004
G1 X0.274
G0 X0.543
G1 X0.505
G0 X0.297
G1 X0.424
G0 X0.52
G1 X0.738
G0 X0.127
G1 X0.382
G0 X0.544
G1 X0.836
G0 X0.025
G1 X0.291
G0 X0.647
G1 X0.609
G0 X0.405
G1 X0.22
G0 X0.512
G1 X0.436
G0 X0.612
G1 X0.836
G0 X0.025
G1 X0.291
G0 X0.67
G1 X0.401
G0 X5.427
G1 X0.6
G0 X9.798
G1 X0.605
G0 X0.519
G1 X0.512
G0 X0.318
G1 X0.486
G0 X0.391
G1 X0.309
G0 X0.567
G1 X0.459
G0 X0.013
G1 X0.187
G0 X0.393
G1 X0.35
G0 X0.243
G1 X0.486
G0 X0.198
G1 X0.216
G0 X0.218
G1 X0.46
G0 X0.163
G1 X0.237
G0 X0.177
G1 X0.478
G0 X0.548
G1 X0.521
G0 X0.476
G1 X0.435
G0 X0.562
G1 X0.563
G0 X0.229
G1 X0.318
G0 X0.092
G1 X0.475
G0 X0.522
G1 X0.486
G0 X0.391
G1 X0.309
G0 X0.467
G1 X0.524
G0 X0.639
G1 X0.137
G0 X0.471
G1 X0.486
G0 X0.391
G1 X0.309
G0 X1.486
G1 X0.492
G0 X0.377
G1 X0.316
G0 X0.543
G1 X0.486
G0 X0.198
G1 X0.215
G0 X0.218
G1 X0.461
G0 X0.163
G1 X0.237
G0 X0.177
G1 X0.478
G0 X2.067
G1 X0.477
G0 X1.451
G1 X0.434
G0 X0.354
G1 X0.492
G0 X0.377
G1 X0.316
G0 X0.526
G1 X0.508
G0 X0.505
G1 X0.528
G0 X0.845
G1 X0.317
G0 X12.155
G1 X0.698
G0 X4.923
G1 X0.43
G0 X1.75
G0 X-0.041Y0.1
G0 X-1.75
G1 X-0.43
G0 X-4.926
G1 X-0.698
G0 X-12.093
G1 X-0.364
G0 X-0.772
G1 X-0.517
G0 X-0.515
G1 X-0.515
G0 X-0.501
G1 X-0.301
G0 X-0.4
G1 X-0.503
G0 X-0.375
G1 X-0.41
G0 X-1.456
G1 X-0.48
G0 X-2.06
G1 X-0.473
G0 X-0.115
G1 X-0.264
G0 X-0.194
G1 X-0.458
G0 X-0.172
G1 X-0.233
G0 X-0.23
G1 X-0.502
G0 X-0.518
G1 X-0.301
G0 X-0.4
G1 X-0.503
G0 X-1.468
G1 X-0.298
G0 X-0.395
G1 X-0.511
G0 X-0.392
G1 X-0.372
G0 X-0.476
G1 X-0.53
G0 X-0.449
G1 X-0.299
G0 X-0.395
G1 X-0.511
G0 X-0.512
G1 X-0.844
G0 X-0.269
G1 X-0.574
G0 X-0.567
G1 X-0.419
G0 X-0.448
G1 X-0.558
G0 X-0.547
G1 X-0.474
G0 X-0.115
G1 X-0.264
G0 X-0.194
G1 X-0.458
G0 X-0.172
G1 X-0.231
G0 X-0.232
G1 X-0.502
G0 X-0.27
G1 X-0.435
G0 X-0.189
G1 X-0.211
G0 X-0.083
G1 X-0.462
G0 X-0.537
G1 X-0.299
G0 X-0.395
G1 X-0.511
G0 X-0.343
G1 X-0.49
G0 X-0.482
G1 X-0.176
G0 X-0.007
G1 X-0.461
G0 X-9.837
G1 X-0.6
G0 X-5.382
G1 X-0.41
G0 X-0.948
G1 X-0.819
G0 X-0.851
G1 X-0.186
G0 X-0.633
G1 X-0.214
G0 X-0.243
G1 X-0.66
G0 X-0.986
G1 X-0.82
G0 X-0.622
G1 X-0.391
G0 X-0.006
G1 X-0.77
G0 X-0.588
G1 X-0.366
G0 X-0.31
G1 X-0.529
G0 X-0.579
G1 X-0.96
G0 X-0.682
G1 X-0.215
G0 X-0.242
G1 X-0.661
G0 X-1.155
G1 X-0.678
G0 X-0.609
G1 X-0.962
G0 X-1.644
G1 X-0.959
G0 X-0.637
G1 X-0.391
G0 X-0.006
G1 X-0.771
G0 X-1.562
G1 X-0.961
G0 X-0.963
G1 X-0.82
G0 X-0.757
G1 X-0.359
G0 X-0.662
G1 X-0.546
G0 X-1.159
G1 X-0.679
G0 X-1.876
G1 X-0.513
G0 X-2.182
G1 X-0.59
G0 X-2.128
G1 X-0.962
G0 X-0.963
G1 X-0.82
G0 X-0.644
G1 X-0.456
G0 X-0.556
G1 X-0.96
G0 X-0.723
G1 X-0.348
G0 X-0.088
G1 X-0.264
G0 X-0.25
G1 X-0.498
G0 X-3.535
G1 X-0.681
G0 X-5.159
G1 X-0.419
G0 X-1.75
G0 X0.041Y0.1
G0 X1.75
G1 X0.419
G0 X5.164
G1 X0.682
G0 X3.529
G1 X0.517
G0 X0.318
G1 X0.497
G0 X0.93
G1 X0.779
G0 X0.645
G1 X0.455
G0 X0.716
G1 X0.641
G0 X1.074
G1 X0.856
G0 X2.485
G1 X0.407
G0 X2.16
G1 X0.489
G0 X1.93
G1 X0.475
G0 X1.309
G1 X0.431
G0 X1.939
G1 X0.641
G0 X1.074
G1 X0.856
G0 X1.75
G1 X0.614
G0 X0.029
G1 X0.4
G0 X0.767
G1 X0.779
G0 X1.736
G1 X0.856
G0 X0.791
G1 X0.474
G0 X1.388
G1 X0.922
G0 X0.862
G1 X0.779
G0 X0.682
G1 X0.545
G0 X0.313
G1 X0.318
G0 X0.688
G1 X0.615
G0 X0.028
G1 X0.401
G0 X0.731
G1 X0.641
G0 X1.202
G1 X0.922
G0 X1.828
G1 X0.64
G0 X1.056
G1 X0.429
G0 X5.323
G1 X0.6
G0 X9.874
G1 X0.458
G0 X0.045
G1 X0.197
G0 X0.422
G1 X0.475
G0 X0.382
G1 X0.531
G0 X0.385
G1 X0.28
G0 X0.522
G1 X0.465
G0 X0.153
G1 X0.235
G0 X0.013
G1 X0.456
G0 X0.332
G1 X0.522
G0 X0.265
G1 X0.254
G0 X0.125
G1 X0.446
G0 X0.226
G1 X0.34
G0 X0.003
G1 X0.47
G0 X0.566
G1 X0.577
G0 X0.418
G1 X0.408
G0 X0.57
G1 X0.584
G0 X0.314
G1 X0.811
G0 X0.501
G1 X0.531
G0 X0.385
G1 X0.28
G0 X0.447
G1 X0.54
G0 X0.519
G1 X0.329
G0 X0.393
G1 X0.531
G0 X0.384
G1 X0.281
G0 X1.476
G1 X0.526
G0 X0.374
G1 X0.296
G0 X0.506
G1 X0.522
G0 X0.268
G1 X0.251
G0 X0.125
G1 X0.446
G0 X0.226
G1 X0.34
G0 X0.003
G1 X0.47
G0 X2.053
G1 X0.482
G0 X1.449
G1 X0.398
G0 X0.409
G1 X0.526
G0 X0.374
G1 X0.296
G0 X0.495
G1 X0.526
G0 X0.501
G1 X0.526
G0 X0.693
G1 X0.419
G0 X0.329
G1 X0.143
G0 X11.552
G1 X0.698
G0 X4.929
G1 X0.43
G0 X1.75
G0 X-0.041Y0.1
G0 X-1.75
G1 X-0.43
G0 X-4.933
G1 X-0.697
G0 X-11.445
G1 X-0.169
G0 X-0.331
G1 X-0.461
G0 X-0.636
G1 X-0.541
G0 X-0.482
G1 X-0.526
G0 X-0.513
G1 X-0.282
G0 X-0.332
G1 X-0.548
G0 X-0.456
G1 X-0.391
G0 X-1.437
G1 X-0.484
G0 X-2.047
G1 X-0.773
G0 X-0.258
G1 X-0.434
G0 X-0.068
G1 X-0.28
G0 X-0.295
G1 X-0.542
G0 X-0.516
G1 X-0.283
G0 X-0.332
G1 X-0.548
G0 X-1.51
G1 X-0.271
G0 X-0.327
G1 X-0.564
G0 X-0.416
G1 X-0.3
G0 X-0.518
G1 X-0.571
G0 X-0.456
G1 X-0.272
G0 X-0.326
G1 X-0.564
G0 X-0.505
G1 X-0.766
G0 X-0.37
G1 X-0.594
G0 X-0.573
G1 X-0.397
G0 X-0.344
G1 X-0.64
G0 X-0.585
G1 X-0.773
G0 X-0.257
G1 X-0.435
G0 X-0.068
G1 X-0.286
G0 X-0.29
G1 X-0.541
G0 X-0.381
G1 X-0.602
G0 X-0.21
G1 X-0.478
G0 X-0.515
G1 X-0.272
G0 X-0.326
G1 X-0.564
G0 X-0.439
G1 X-0.456
G0 X-0.363
G1 X-0.213
G0 X-0.086
G1 X-0.456
G0 X-9.91
G1 X-0.601
G0 X-5.265
G1 X-0.447
G0 X-1.188
G1 X-0.377
G0 X-2.095
G1 X-0.661
G0 X-1.46
G1 X-0.377
G0 X-0.906
G1 X-0.414
G0 X-0.16
G1 X-0.306
G0 X-1.606
G1 X-0.356
G0 X-0.868
G1 X-0.455
G0 X-1.158
G1 X-0.66
G0 X-1.7
G1 X-0.086
G0 X-1.114
G1 X-0.706
G0 X-1.928
G1 X-0.456
G0 X-0.97
G1 X-0.414
G0 X-0.16
G1 X-0.307
G0 X-1.99
G1 X-0.706
G0 X-1.236
G1 X-0.377
G0 X-2.185
G1 X-0.284
G0 X-1.528
G1 X-0.086
G0 X-2.107
G1 X-0.469
G0 X-0.727
G1 X-0.336
G0 X-1.105
G1 X-0.307
G0 X-2.743
G1 X-0.706
G0 X-1.236
G1 X-0.376
G0 X-0.845
G1 X-0.458
G0 X-0.809
G1 X-0.455
G0 X-1.885
G1 X-0.533
G0 X-3.527
G1 X-0.682
G0 X-5.169
G1 X-0.42
G0 X-1.75
G0 X0.041Y0.1
G0 X1.75
G1 X0.419
G0 X5.175
G1 X0.683
G0 X3.536
G1 X0.552
G0 X3.113
G1 X0.47
G0 X2.504
G1 X0.507
G0 X2.965
G1 X0.259
G0 X0.936
G1 X0.389
G0 X0.846
G1 X0.444
G0 X3.742
G1 X0.079
G0 X4.029
G1 X0.507
G0 X2.541
G1 X0.428
G0 X3.455
G1 X0.507
G0 X6.209
G1 X0.033
G0 X2.311
G1 X0.428
G0 X4.575
G1 X0.063
G0 X2.47
G1 X0.464
G0 X5.207
G1 X0.601
G0 X9.947
G1 X0.46
G0 X0.137
G1 X0.214
G0 X0.304
G1 X0.435
G0 X0.496
G1 X0.624
G0 X0.225
G1 X0.269
G0 X0.52
G1 X0.493
G0 X0.254
G1 X0.51
G0 X0.431
G1 X0.56
G0 X0.325
G1 X0.737
G0 X0.295
G1 X0.731
G0 X0.604
G1 X0.71
G0 X0.263
G1 X0.386
G0 X0.58
G1 X0.601
G0 X0.426
G1 X0.725
G0 X0.503
G1 X0.625
G0 X0.224
G1 X0.269
G0 X0.505
G1 X0.58
G0 X0.501
G1 X0.246
G0 X0.474
G1 X0.624
G0 X0.225
G1 X0.269
G0 X1.554
G1 X0.619
G0 X0.23
G1 X0.269
G0 X0.538
G1 X0.56
G0 X0.332
G1 X0.73
G0 X0.295
G1 X0.731
G0 X2.039
G1 X0.491
G0 X1.422
G1 X0.373
G0 X0.515
G1 X0.619
G0 X0.23
G1 X0.269
G0 X0.54
G1 X0.529
G0 X0.473
G1 X0.542
G0 X0.586
G1 X0.502
G0 X0.307
G1 X0.191
G0 X11.364
G1 X0.696
G0 X4.935
G1 X0.43
G0 X1.75
G0 X-0.041Y0.1
G0 X-1.75
G1 X-0.43
G0 X-4.938
G1 X-0.696
G0 X-11.303
G1 X-0.247
G0 X-0.172
G1 X-0.582
G0 X-0.555
G1 X-0.537
G0 X-0.464
G1 X-0.524
G0 X-0.585
G1 X-0.276
G0 X-0.027
G1 X-0.752
G0 X-0.594
G1 X-0.363
G0 X-1.389
G1 X-0.503
G0 X-2.039
G1 X-0.671
G0 X-0.351
G1 X-0.661
G0 X-0.387
G1 X-0.567
G0 X-0.564
G1 X-0.275
G0 X-0.028
G1 X-0.752
G0 X-1.617
G1 X-0.275
G0 X-0.043
G1 X-0.737
G0 X-0.555
G1 X-0.223
G0 X-0.416
G1 X-0.607
G0 X-0.568
G1 X-0.275
G0 X-0.043
G1 X-0.737
G0 X-0.561
G1 X-0.617
G0 X-0.504
G1 X-0.607
G0 X-0.637
G1 X-0.329
G0 X-0.082
G1 X-0.843
G0 X-0.666
G1 X-0.671
G0 X-0.351
G1 X-0.674
G0 X-0.374
G1 X-0.567
G0 X-0.467
G1 X-0.431
G0 X-0.295
G1 X-0.501
G0 X-0.54
G1 X-0.275
G0 X-0.043
G1 X-0.737
G0 X-0.594
G1 X-0.397
G0 X-0.23
G1 X-0.22
G0 X-0.182
G1 X-0.475
G0 X-9.979
G1 X-0.601
G0 X-5.148
G1 X-0.48
G0 X-2.443
G1 X-0.202
G0 X-4.509
G1 X-0.444
G0 X-8.667
G1 X-0.227
G0 X-3.606
G1 X-0.443
G0 X-2.655
G1 X-0.227
G0 X-7.96
G1 X-0.419
G0 X-0.918
G1 X-0.432
G0 X-0.839
G1 X-0.221
G0 X-3.18
G1 X-0.227
G0 X-2.601
G1 X-0.481
G0 X-3.078
G1 X-0.567
G0 X-3.549
G1 X-0.683
G0 X-5.18
G1 X-0.419
G0 X-1.75
G0 X0.04Y0.1
G0 X1.75
G1 X0.419
G0 X5.187
G1 X0.683
G0 X3.576
G1 X0.354
G0 X3.256
G1 X0.493
G0 X6.012
G1 X0.211
G0 X0.776
G1 X0.44
G0 X0.964
G1 X0.411
G0 X10.784
G1 X0.459
G0 X12.484
G1 X0.459
G0 X1.41
G1 X0.409
G0 X2.698
G1 X0.288
G0 X2.411
G1 X0.507
G0 X0.656
G1 X0.156
G0 X0.596
G1 X0.156
G0 X3.51
G1 X0.601
G0 X10.008
G1 X0.494
G0 X0.233
G1 X0.268
G0 X0.106
G1 X0.359
G0 X0.7
G1 X0.974
G0 X0.574
G1 X0.526
G0 X0.31
G1 X0.372
G0 X0.493
G1 X0.561
G0 X0.445
G1 X0.498
G0 X0.553
G1 X0.502
G0 X0.791
G1 X0.698
G0 X0.179
G1 X0.04
G0 X0.926
G1 X0.558
G0 X0.636
G1 X0.401
G0 X0.735
G1 X0.974
G0 X0.647
G1 X0.659
G0 X0.265
G1 X0.214
G0 X0.665
G1 X0.974
G0 X1.698
G1 X0.974
G0 X0.606
G1 X0.56
G0 X0.452
G1 X0.488
G0 X0.556
G1 X0.502
G0 X2.103
G1 X0.514
G0 X1.354
G1 X0.354
G0 X0.681
G1 X0.974
G0 X0.646
G1 X0.516
G0 X0.465
G1 X0.516
G0 X0.54
G1 X0.969
G0 X11.263
G1 X0.696
G0 X4.941
G1 X0.43
G0 X1.75
G0 X-0.041Y0.1
G0 X-1.75
G1 X-0.43
G0 X-4.944
G1 X-0.696
G0 X-11.26
G1 X-0.886
G0 X-0.664
G1 X-0.359
G0 X-0.47
G1 X-0.509
G0 X-0.76
G1 X-0.808
G0 X-0.805
G1 X-0.345
G0 X-1.32
G1 X-0.526
G0 X-2.327
G1 X-0.046
G0 X-1.771
G1 X-0.495
G0 X-0.701
G1 X-0.808
G0 X-1.864
G1 X-0.808
G0 X-0.836
G1 X-0.95
G0 X-0.83
G1 X-0.808
G0 X-1.948
G1 X-0.449
G0 X-1.284
G1 X-0.512
G0 X-1.087
G1 X-0.047
G0 X-1.771
G1 X-0.495
G0 X-0.528
G1 X-0.324
G0 X-0.313
G1 X-0.542
G0 X-0.664
G1 X-0.808
G0 X-0.902
G1 X-0.513
G0 X-0.321
G1 X-0.514
G0 X-10.047
G1 X-0.601
G0 X-3.422
G1 X-0.254
G0 X-0.498
G1 X-0.254
G0 X-0.57
G1 X-0.537
G0 X-2.377
G1 X-0.401
G0 X-2.432
G1 X-0.551
G0 X-1.521
G1 X-0.468
G0 X-12.475
G1 X-0.469
G0 X-10.752
G1 X-0.384
G0 X-0.977
G1 X-0.453
G0 X-0.757
G1 X-0.189
G0 X-6.006
G1 X-0.504
G0 X-7.179
G1 X-0.683
G0 X-5.192
G1 X-0.419
G0 X-1.75
G0 X0.041Y0.1
G0 X1.75
G1 X0.419
G0 X5.197
G1 X0.684
G0 X7.179
G1 X0.517
G0 X4.723
G1 X0.217
G0 X1.026
G1 X0.191
G0 X0.757
G1 X0.456
G0 X0.954
G1 X0.385
G0 X10.717
G1 X0.481
G0 X12.462
G1 X0.481
G0 X1.688
G1 X0.579
G0 X2.258
G1 X0.489
G0 X2.335
G1 X0.567
G0 X0.525
G1 X0.307
G0 X0.445
G1 X0.307
G0 X3.337
G1 X0.601
G0 X10.09
G1 X0.53
G0 X1.863
G1 X0.513
G0 X0.832
G1 X0.389
G0 X1.317
G1 X0.314
G0 X3.226
G1 X0.18
G0 X1.488
G1 X0.309
G0 X2.204
G1 X0.513
G0 X1.089
G1 X0.73
G0 X1.092
G1 X0.513
G0 X2.159
G1 X0.513
G0 X0.868
G1 X0.314
G0 X4.303
G1 X0.539
G0 X1.277
G1 X0.327
G0 X1.003
G1 X0.513
G0 X0.963
G1 X0.413
G0 X1.559
G1 X0.733
G0 X11.306
G1 X0.694
G0 X4.948
G1 X0.429
G0 X1.75
G0 X-0.041Y0.1
G0 X-1.75
G1 X-0.429
G0 X-4.951
G1 X-0.694
G0 X-11.36
G1 X-0.544
G0 X-4.555
G1 X-0.307
G0 X-1.236
G1 X-0.551
G0 X-0.422
G1 X-0.169
G0 X-3.977
G1 X-0.026
G0 X-5.548
G1 X-0.038
G0 X-4.267
G1 X-0.125
G0 X-5.194
G1 X-0.027
G0 X-1.6
G1 X-0.098
G0 X-3.202
G1 X-0.55
G0 X-10.142
G1 X-0.601
G0 X-3.272
G1 X-0.342
G0 X-0.409
G1 X-0.343
G0 X-0.478
G1 X-0.598
G0 X-2.288
G1 X-0.554
G0 X-2.145
G1 X-0.597
G0 X-1.831
G1 X-0.504
G0 X-12.44
G1 X-0.504
G0 X-10.701
G1 X-0.359
G0 X-0.908
G1 X-0.444
G0 X-0.816
G1 X-0.174
G0 X-0.895
G1 X-0.408
G0 X-4.614
G1 X-0.533
G0 X-7.18
G1 X-0.684
G0 X-5.202
G1 X-0.42
G0 X-1.75
G0 X0.041Y0.1
G0 X1.75
G1 X0.42
G0 X5.207
G1 X0.685
G0 X7.181
G1 X0.547
G0 X4.524
G1 X0.649
G0 X0.648
G1 X0.192
G0 X0.893
G1 X0.45
G0 X0.813
G1 X0.357
G0 X10.688
G1 X0.516
G0 X12.427
G1 X0.516
G0 X1.959
G1 X0.502
G0 X2.168
G1 X0.535
G0 X2.329
G1 X0.647
G0 X0.404
G1 X0.382
G0 X0.37
G1 X0.381
G0 X3.212
G1 X0.602
G0 X10.2
G1 X0.565
G0 X23.946
G1 X0.288
G0 X0.422
G1 X0.567
G0 X1.172
G1 X0.304
G0 X4.704
G1 X0.283
G0 X11.442
G1 X0.694
G0 X4.953
G1 X0.43
G0 X1.75
G0 X-0.042Y0.1
G0 X-1.75
G1 X-0.429
G0 X-4.956
G1 X-0.694
G0 X-9.059
G1 X-0.122
G0 X-0.63
G1 X-0.121
G0 X-6.472
G1 X-0.302
G0 X-1.1
G1 X-0.586
G0 X-0.411
G1 X-0.379
G0 X-23.977
G1 X-0.42
G0 X-10.27
G1 X-0.602
G0 X-3.159
G1 X-0.414
G0 X-0.338
G1 X-0.413
G0 X-0.326
G1 X-0.692
G0 X-2.502
G1 X-0.388
G0 X-2.221
G1 X-0.392
G0 X-2.082
G1 X-0.527
G0 X-12.417
G1 X-0.526
G0 X-10.698
G1 X-0.34
G0 X-0.674
G1 X-0.455
G0 X-1.034
G1 X-1.441
G0 X-4.46
G1 X-0.562
G0 X-7.183
G1 X-0.684
G0 X-5.214
G1 X-0.419
G0 X-1.75
G0 X0.04Y0.1
G0 X1.75
G1 X0.42
G0 X5.219
G1 X0.685
G0 X7.192
G1 X0.573
G0 X4.499
G1 X1.253
G0 X1.236
G1 X0.47
G0 X0.434
G1 X0.374
G0 X10.711
G1 X0.546
G0 X12.397
G1 X0.546
G0 X2.193
G1 X0.27
G0 X2.305
G1 X0.168
G0 X2.744
G1 X0.736
G0 X0.237
G1 X0.442
G0 X0.309
G1 X0.442
G0 X3.12
G1 X0.602
G0 X10.345
G1 X0.067
G0 X24.256
G1 X0.426
G0 X0.399
G1 X0.605
G0 X1.016
G1 X0.285
G0 X6.494
G1 X0.242
G0 X0.509
G1 X0.243
G0 X8.919
G1 X0.692
G0 X4.96
G1 X0.428
G0 X1.75
G0 X-0.041Y0.1
G0 X-1.75
G1 X-0.428
G0 X-4.963
G1 X-0.692
G0 X-8.792
G1 X-0.295
G0 X-0.457
G1 X-0.294
G0 X-6.575
G1 X-0.278
G0 X-0.918
G1 X-0.624
G0 X-0.361
G1 X-0.467
G0 X-34.701
G1 X-0.602
G0 X-3.08
G1 X-0.471
G0 X-0.281
G1 X-0.47
G0 X-0.178
G1 X-0.745
G0 X-5.341
G1 X-0.139
G0 X-2.299
G1 X-0.566
G0 X-12.378
G1 X-0.565
G0 X-10.797
G1 X-0.958
G0 X-1.561
G1 X-0.808
G0 X-4.718
G1 X-0.593
G0 X-7.203
G1 X-0.685
G0 X-5.224
G1 X-0.42
G0 X-1.75
G0 X0.041Y0.1
G0 X1.75
G1 X0.42
G0 X5.229
G1 X0.686
G0 X7.212
G1 X0.614
G0 X7.325
G1 X0.375
G0 X11.004
G1 X0.58
G0 X12.364
G1 X0.579
G0 X7.894
G1 X0.617
G0 X0.239
G1 X0.495
G0 X0.257
G1 X0.495
G0 X3.054
G1 X0.602
G0 X34.748
G1 X0.497
G0 X0.32
G1 X0.642
G0 X0.81
G1 X0.266
G0 X6.672
G1 X0.334
G0 X0.418
G1 X0.333
G0 X8.678
G1 X0.692
G0 X4.965
G1 X0.428
G0 X1.75
G0 X-0.041Y0.1
G0 X-1.75
G1 X-0.428
G0 X-4.968
G1 X-0.692
G0 X-8.575
G1 X-0.371
G0 X-0.381
G1 X-0.37
G0 X-6.771
G1 X-0.265
G0 X-0.719
G1 X-0.62
G0 X-0.245
G1 X-0.544
G0 X-34.813
G1 X-0.602
G0 X-3.033
G1 X-0.515
G0 X-0.236
G1 X-0.516
G0 X-0.33
G1 X-0.456
G0 X-8.016
G1 X-0.59
G0 X-12.354
G1 X-0.589
G0 X-18.567
G1 X-0.631
G0 X-7.225
G1 X-0.686
G0 X-5.234
G1 X-0.42
G0 X-1.75
G0 X0.041Y0.1
G0 X1.75
G1 X0.42
G0 X5.239
G1 X0.686
G0 X7.245
G1 X0.613
G0 X18.517
G1 X0.541
G0 X12.403
G1 X0.54
G0 X8.148
G1 X0.246
G0 X0.452
G1 X0.544
G0 X0.208
G1 X0.544
G0 X3.011
G1 X0.602
G0 X34.897
G1 X0.593
G0 X0.147
G1 X0.433
G0 X0.752
G1 X0.293
G0 X6.882
G1 X0.408
G0 X0.344
G1 X0.407
G0 X8.475
G1 X0.691
G0 X4.971
G1 X0.427
G0 X1.75
G0 X-0.042Y0.1
G0 X-1.75
G1 X-0.426
G0 X-4.975
G1 X-0.69
G0 X-8.392
G1 X-0.433
G0 X-0.318
G1 X-0.434
G0 X-7.013
G1 X-0.348
G0 X-0.788
G1 X-0.838
G0 X-35.023
G1 X-0.602
G0 X-3.097
G1 X-0.469
G0 X-0.283
G1 X-0.468
G0 X-8.909
G1 X-0.379
G0 X-12.564
G1 X-0.379
G0 X-18.744
G1 X-0.408
G0 X-7.265
G1 X-0.686
G0 X-5.246
G1 X-0.419
G0 X-1.75
G0 X0.04Y0.1
G0 X1.75
G1 X0.42
G0 X5.251
G1 X0.686
G0 X7.286
G1 X0.142
G0 X19.082
G1 X0.166
G0 X12.777
G1 X0.166
G0 X8.963
G1 X0.291
G0 X0.461
G1 X0.29
G0 X3.295
G1 X0.602
G0 X35.175
G1 X1.673
G0 X7.173
G1 X0.462
G0 X0.29
G1 X0.461
G0 X8.309
G1 X0.69
G0 X4.978
G1 X0.426
G0 X1.75
G0 X-0.042Y0.1
G0 X-1.75
G1 X-0.426
G0 X-4.98
G1 X-0.689
G0 X-8.234
G1 X-0.488
G0 X-0.264
G1 X-0.488
G0 X-7.384
G1 X-1.242
G0 X-35.4
G1 X-0.602
G0 X-52.872
G1 X-0.687
G0 X-5.256
G1 X-0.42
G0 X-1.75
G0 X0.041Y0.1
G0 X1.75
G1 X0.42
G0 X5.261
G1 X0.687
G0 X52.826
G1 X0.602
G0 X35.813
G1 X0.182
G0 X8.032
G1 X0.508
G0 X0.243
G1 X0.509
G0 X8.169
G1 X0.689
G0 X4.983
G1 X0.426
G0 X1.75
G0 X-0.042Y0.1
G0 X-1.75
G1 X-0.425
G0 X-4.987
G1 X-0.687
G0 X-8.105
G1 X-0.533
G0 X-0.219
G1 X-0.532
G0 X-44.024
G1 X-0.602
G0 X-52.779
G1 X-0.688
G0 X-5.266
G1 X-0.42
G0 X-1.75
G0 X0.041Y0.1
G0 X1.75
G1 X0.42
G0 X5.271
G1 X0.688
G0 X52.733
G1 X0.602
G0 X44.015
G1 X0.496
G0 X0.255
G1 X0.497
G0 X8.106
G1 X0.687
G0 X4.99
G1 X0.424
G0 X1.75
G0 X-0.041Y0.1
G0 X-1.75
G1 X-0.424
G0 X-4.993
G1 X-0.687
G0 X-8.194
G1 X-0.381
G0 X-0.37
G1 X-0.382
G0 X-27.379
G1 X-0.093
G0 X-8.908
G1 X-0.179
G0 X-7.439
G1 X-0.602
G0 X-52.686
G1 X-0.689
G0 X-5.277
G1 X-0.419
G0 X-1.75
G0 X0.04Y0.1
G0 X1.75
G1 X0.42
G0 X5.282
G1 X0.689
G0 X52.64
G1 X0.602
G0 X7.313
G1 X0.322
G0 X8.783
G1 X0.226
G0 X36.638
G1 X0.686
G0 X4.995
G1 X0.424
G0 X1.75
G0 X-0.041Y0.1
G0 X-1.75
G1 X-0.424
G0 X-4.998
G1 X-0.686
G0 X-36.569
G1 X-0.294
G0 X-8.717
G1 X-0.357
G0 X-7.301
G1 X-0.602
G0 X-52.593
G1 X-0.69
G0 X-5.287
G1 X-0.42
G0 X-1.75
G0 X0.041Y0.1
G0 X1.75
G1 X0.42
G0 X5.292
G1 X0.69
G0 X40.995
G1 X0.236
G0 X11.316
G1 X0.602
G0 X7.307
G1 X0.377
G0 X8.672
G1 X0.338
G0 X36.501
G1 X0.684
G0 X5.002
G1 X0.423
G0 X1.75
G0 X-0.042Y0.1
G0 X-1.75
G1 X-0.422
G0 X-5.005
G1 X-0.684
G0 X-36.432
G1 X-0.372
G0 X-8.637
G1 X-0.397
G0 X-7.313
G1 X-0.602
G0 X-11.168
G1 X-0.359
G0 X-40.973
G1 X-0.691
G0 X-5.297
G1 X-0.42
G0 X-1.75
G0 X0.041Y0.1
G0 X1.75
G1 X0.42
G0 X5.302
G1 X0.691
G0 X41.031
G1 X0.377
G0 X11.047
G1 X0.601
G0 X7.326
G1 X0.41
G0 X8.618
G1 X0.39
G0 X36.364
G1 X0.683
G0 X5.007
G1 X0.423
G0 X1.75
G0 X-0.042Y0.1
G0 X-1.75
G1 X-0.422
G0 X-5.01
G1 X-0.683
G0 X-36.295
G1 X-0.404
G0 X-8.603
G1 X-0.421
G0 X-7.341
G1 X-0.601
G0 X-10.95
G1 X-0.386
G0 X-12.394
G1 X-0.115
G0 X-1.729
G1 X-0.037
G0 X-10.269
G1 X-0.111
G0 X-16.417
G1 X-0.691
G0 X-5.308
G1 X-0.419
G0 X-1.75
G0 X0.041Y0.1
G0 X1.75
G1 X0.419
G0 X5.313
G1 X0.691
G0 X10.363
G1 X1.134
G0 X4.716
G1 X0.294
G0 X4.329
G1 X0.198
G0 X5.481
G1 X0.285
G0 X1.41
G1 X0.416
G0 X5.775
G1 X0.012
G0 X2.539
G1 X0.198
G0 X3.941
G1 X0.404
G0 X10.867
G1 X0.601
G0 X7.357
G1 X0.432
G0 X8.586
G1 X0.419
G0 X36.226
G1 X0.683
G0 X5.013
G1 X0.422
G0 X1.75
G0 X-0.042Y0.1
G0 X-1.75
G1 X-0.421
G0 X-5.017
G1 X-0.681
G0 X-36.154
G1 X-0.433
G0 X-8.575
G1 X-0.438
G0 X-7.377
G1 X-0.601
G0 X-10.803
G1 X-0.422
G0 X-1.142
G1 X-0.291
G0 X-2.368
G1 X-0.617
G0 X-2.208
G1 X-0.209
G0 X-2.618
G1 X-0.267
G0 X-2.789
G1 X-0.522
G0 X-1.292
G1 X-0.375
G0 X-1.789
G1 X-0.407
G0 X-1.751
G1 X-0.126
G0 X-1.119
G1 X-0.644
G0 X-4.071
G1 X-0.412
G0 X-1.982
G1 X-0.282
G0 X-1.26
G1 X-0.125
G0 X-0.815
G1 X-1.567
G0 X-10.042
G1 X-0.692
G0 X-5.318
G1 X-0.419
G0 X-1.75
G0 X0.041Y0.1
G0 X1.75
G1 X0.419
G0 X5.323
G1 X0.692
G0 X9.819
G1 X1.858
G0 X0.548
G1 X0.303
G0 X1.164
G1 X0.479
G0 X1.787
G1 X0.506
G0 X2.017
G1 X0.39
G0 X0.554
G1 X0.433
G0 X0.554
G1 X0.31
G0 X0.238
G1 X0.294
G0 X0.867
G1 X0.302
G0 X1.566
G1 X0.746
G0 X1.608
G1 X0.397
G0 X1.273
G1 X0.523
G0 X0.57
G1 X0.183
G0 X0.817
G1 X0.222
G0 X0.863
G1 X0.591
G0 X0.561
G1 X0.367
G0 X0.577
G1 X0.433
G0 X0.432
G1 X0.345
G0 X1.078
G1 X0.357
G0 X0.597
G1 X0.31
G0 X0.237
G1 X0.308
G0 X1.038
G1 X0.18
G0 X0.843
G1 X0.695
G0 X0.934
G1 X0.456
G0 X10.739
G1 X0.601
G0 X7.402
G1 X0.447
G0 X8.56
G1 X0.444
G0 X36.08
G1 X0.681
G0 X5.02
G1 X0.42
G0 X1.75
G0 X-0.041Y0.1
G0 X-1.75
G1 X-0.421
G0 X-5.022
G1 X-0.68
G0 X-36.008
G1 X-0.453
G0 X-8.547
G1 X-0.455
G0 X-7.427
G1 X-0.601
G0 X-10.701
G1 X-0.482
G0 X-0.785
G1 X-0.356
G0 X-0.265
G1 X-0.323
G0 X-0.755
G1 X-0.272
G0 X-0.842
G1 X-0.323
G0 X-0.392
G1 X-0.312
G0 X-0.381
G1 X-0.633
G0 X-0.87
G1 X-0.452
G0 X-0.464
G1 X-0.415
G0 X-0.406
G1 X-0.58
G0 X-0.452
G1 X-0.069
G0 X-0.169
G1 X-0.43
G0 X-0.734
G1 X-0.375
G0 X-0.668
G1 X-0.315
G0 X-0.511
G1 X-0.523
G0 X-1.25
G1 X-0.388
G0 X-1.503
G1 X-0.278
G0 X-0.323
G1 X-0.367
G0 X-1.457
G1 X-0.397
G0 X-0.696
G1 X-0.307
G0 X-0.391
G1 X-0.313
G0 X-0.545
G1 X-0.415
G0 X-0.398
G1 X-0.588
G0 X-1.903
G1 X-0.524
G0 X-1.71
G1 X-0.57
G0 X-1.139
G1 X-0.396
G0 X-0.395
G1 X-2.112
G0 X-9.602
G1 X-0.693
G0 X-5.328
G1 X-0.419
G0 X-1.75
G0 X0.041Y0.1
G0 X1.75
G1 X0.419
G0 X5.333
G1 X0.693
G0 X9.432
G1 X1.257
G0 X0.439
G1 X0.601
G0 X0.36
G1 X0.4
G0 X1.129
G1 X0.614
G0 X1.693
G1 X0.511
G0 X1.824
G1 X0.362
G0 X0.13
G1 X0.249
G0 X0.283
G1 X0.394
G0 X0.534
G1 X0.335
G0 X0.494
G1 X0.321
G0 X0.622
G1 X0.399
G0 X1.367
G1 X0.378
G0 X0.571
G1 X0.198
G0 X1.423
G1 X0.379
G0 X1.222
G1 X0.525
G0 X0.469
G1 X0.428
G0 X0.563
G1 X0.486
G0 X0.639
G1 X0.419
G0 X0.672
G1 X0.362
G0 X0.13
G1 X0.239
G0 X0.293
G1 X0.394
G0 X0.503
G1 X0.515
G0 X0.744
G1 X0.444
G0 X0.224
G1 X0.036
G0 X0.323
G1 X0.334
G0 X0.494
G1 X0.34
G0 X0.695
G1 X0.336
G0 X0.671
G1 X0.367
G0 X0.435
G1 X0.336
G0 X0.658
G1 X0.518
G0 X10.663
G1 X0.601
G0 X7.455
G1 X0.461
G0 X8.533
G1 X0.463
G0 X35.934
G1 X0.68
G0 X5.025
G1 X0.42
G0 X1.75
G0 X-0.041Y0.1
G0 X-1.75
G1 X-0.421
G0 X-5.028
G1 X-0.679
G0 X-35.859
G1 X-0.465
G0 X-8.529
G1 X-0.459
G0 X-7.49
G1 X-0.6
G0 X-10.656
G1 X-0.531
G0 X-0.555
G1 X-0.325
G0 X-0.554
G1 X-0.382
G0 X-0.617
G1 X-0.379
G0 X-0.607
G1 X-0.329
G0 X-0.556
G1 X-0.375
G0 X-0.579
G1 X-0.451
G0 X-0.648
G1 X-0.574
G0 X-0.528
G1 X-0.383
G0 X-0.199
G1 X-0.2
G0 X-0.267
G1 X-0.381
G0 X-0.651
G1 X-0.424
G0 X-0.561
G1 X-0.535
G0 X-0.521
G1 X-0.507
G0 X-0.455
G1 X-0.526
G0 X-1.194
G1 X-0.37
G0 X-1.358
G1 X-0.171
G0 X-0.722
G1 X-0.394
G0 X-1.299
G1 X-0.403
G0 X-0.577
G1 X-0.307
G0 X-0.557
G1 X-0.374
G0 X-0.526
G1 X-0.383
G0 X-0.2
G1 X-0.199
G0 X-0.267
G1 X-0.38
G0 X-1.77
G1 X-0.499
G0 X-1.765
G1 X-0.568
G0 X-1.118
G1 X-0.406
G0 X-0.335
G1 X-0.393
G0 X-1.119
G1 X-0.917
G0 X-9.303
G1 X-0.694
G0 X-5.338
G1 X-0.419
G0 X-1.75
G0 X0.041Y0.1
G0 X1.75
G1 X0.419
G0 X5.343
G1 X0.694
G0 X9.201
G1 X0.749
G0 X1.496
G1 X0.274
G0 X0.327
G1 X0.411
G0 X1.114
G1 X0.422
G0 X1.93
G1 X0.487
G0 X1.734
G1 X0.405
G0 X0.333
G1 X0.195
G0 X0.123
G1 X0.374
G0 X0.531
G1 X0.407
G0 X0.596
G1 X0.303
G0 X0.53
G1 X0.414
G0 X1.245
G1 X0.409
G0 X0.828
G1 X0.15
G0 X1.314
G1 X0.365
G0 X1.164
G1 X0.524
G0 X0.459
G1 X0.568
G0 X0.479
G1 X0.583
G0 X0.493
G1 X0.44
G0 X0.63
G1 X0.405
G0 X0.333
G1 X0.193
G0 X0.125
G1 X0.373
G0 X0.547
G1 X0.636
G0 X0.571
G1 X0.446
G0 X0.586
G1 X0.407
G0 X0.596
G1 X0.327
G0 X0.548
G1 X0.393
G0 X0.567
G1 X0.405
G0 X0.644
G1 X0.316
G0 X0.46
G1 X0.458
G0 X10.741
G1 X0.6
G0 X7.525
G1 X0.458
G0 X8.524
G1 X0.47
G0 X10.422
G1 X0.106
G0 X8.245
G1 X0.105
G0 X16.904
G1 X0.678
G0 X5.031
G1 X0.42
G0 X1.75
G0 X-0.041Y0.1
G0 X-1.75
G1 X-0.421
G0 X-5.033
G1 X-0.678
G0 X-4.646
G1 X-0.205
G0 X-1.143
G1 X-0.484
G0 X-0.833
G1 X-0.431
G0 X-0.974
G1 X-0.093
G0 X-0.944
G1 X-0.076
G0 X-0.754
G1 X-0.223
G0 X-0.752
G1 X-0.171
G0 X-2.282
G1 X-0.484
G0 X-2.286
G1 X-0.265
G0 X-1.838
G1 X-0.532
G0 X-1.186
G1 X-0.323
G0 X-1.383
G1 X-0.532
G0 X-2.287
G1 X-0.27
G0 X-0.593
G1 X-0.222
G0 X-0.752
G1 X-0.172
G0 X-0.763
G1 X-0.427
G0 X-0.974
G1 X-0.093
G0 X-0.944
G1 X-0.076
G0 X-1.539
G1 X-0.205
G0 X-0.914
G1 X-0.541
G0 X-2.092
G1 X-0.476
G0 X-1.36
G1 X-0.431
G0 X-0.974
G1 X-0.093
G0 X-0.943
G1 X-0.077
G0 X-0.988
G1 X-0.54
G0 X-1.869
G1 X-0.153
G0 X-1.091
G1 X-0.455
G0 X-7.561
G1 X-0.6
G0 X-10.933
G1 X-0.285
G0 X-0.37
G1 X-0.309
G0 X-0.712
G1 X-0.409
G0 X-0.541
G1 X-0.41
G0 X-0.505
G1 X-0.331
G0 X-0.613
G1 X-0.44
G0 X-0.584
G1 X-0.437
G0 X-0.503
G1 X-0.215
G0 X-0.024
G1 X-0.458
G0 X-0.559
G1 X-0.363
G0 X-0.075
G1 X-0.193
G0 X-0.38
G1 X-0.411
G0 X-0.609
G1 X-0.466
G0 X-0.433
G1 X-0.631
G0 X-0.434
G1 X-0.618
G0 X-0.476
G1 X-0.518
G0 X-1.135
G1 X-0.365
G0 X-1.348
G1 X-0.054
G0 X-0.88
G1 X-0.453
G0 X-1.204
G1 X-0.432
G0 X-0.484
G1 X-0.321
G0 X-0.614
G1 X-0.439
G0 X-0.526
G1 X-0.363
G0 X-0.077
G1 X-0.191
G0 X-0.38
G1 X-0.411
G0 X-1.717
G1 X-0.475
G0 X-2.163
G1 X-0.206
G0 X-1.104
G1 X-0.424
G0 X-0.33
G1 X-0.22
G0 X-1.73
G1 X-0.624
G0 X-9.122
G1 X-0.695
G0 X-5.348
G1 X-0.419
G0 X-1.75
G0 X0.041Y0.1
G0 X1.75
G1 X0.419
G0 X5.353
G1 X0.695
G0 X9.076
G1 X0.502
G0 X1.888
G1 X0.199
G0 X0.34
G1 X0.455
G0 X3.464
G1 X0.462
G0 X1.702
G1 X0.415
G0 X0.428
G1 X0.186
G0 X0.04
G1 X0.36
G0 X0.515
G1 X0.461
G0 X0.631
G1 X0.324
G0 X0.453
G1 X0.449
G0 X1.164
G1 X0.686
G0 X2.096
G1 X0.351
G0 X1.107
G1 X0.519
G0 X0.494
G1 X0.444
G0 X0.037
G1 X0.185
G0 X0.395
G1 X0.442
G0 X0.025
G1 X0.203
G0 X0.377
G1 X0.485
G0 X0.59
G1 X0.415
G0 X0.428
G1 X0.19
G0 X0.036
G1 X0.359
G0 X0.561
G1 X0.465
G0 X0.08
G1 X0.215
G0 X0.429
G1 X0.443
G0 X0.578
G1 X0.46
G0 X0.631
G1 X0.328
G0 X0.47
G1 X0.432
G0 X0.508
G1 X0.425
G0 X0.75
G1 X0.306
G0 X11.532
G1 X0.6
G0 X7.6
G1 X0.454
G0 X0.854
G1 X0.476
G0 X0.652
G1 X0.296
G0 X0.668
G1 X0.83
G0 X0.74
G1 X0.237
G0 X0.759
G1 X0.281
G0 X0.809
G1 X0.66
G0 X1.256
G1 X0.473
G0 X0.322
G1 X0.387
G0 X1.22
G1 X0.83
G0 X0.639
G1 X0.344
G0 X1.427
G1 X0.237
G0 X0.76
G1 X0.281
G0 X0.809
G1 X0.66
G0 X0.487
G1 X0.465
G0 X0.488
G1 X0.415
G0 X0.46
G1 X0.386
G0 X0.987
G1 X0.483
G0 X0.614
G1 X0.826
G0 X1.051
G1 X0.669
G0 X0.878
G1 X0.825
G0 X1.631
G1 X0.387
G0 X0.986
G1 X0.484
G0 X0.606
G1 X0.329
G0 X0.045
G1 X0.437
G0 X1.955
G1 X0.444
G0 X0.509
G1 X0.415
G0 X0.575
G1 X0.238
G0 X0.759
G1 X0.281
G0 X0.809
G1 X0.66
G0 X0.561
G1 X0.328
G0 X0.045
G1 X0.437
G0 X0.834
G1 X0.343
G0 X4.579
G1 X0.677
G0 X5.036
G1 X0.42
G0 X1.75
G0 X-0.042Y0.1
G0 X-1.75
G1 X-0.419
G0 X-5.039
G1 X-0.677
G0 X-4.51
G1 X-0.396
G0 X-0.669
G1 X-0.352
G0 X-0.329
G1 X-0.333
G0 X-0.762
G1 X-0.429
G0 X-0.694
G1 X-0.416
G0 X-0.629
G1 X-0.357
G0 X-0.558
G1 X-0.408
G0 X-0.36
G1 X-0.643
G0 X-1.747
G1 X-0.351
G0 X-0.318
G1 X-0.344
G0 X-0.421
G1 X-0.693
G0 X-0.82
G1 X-0.477
G0 X-1.482
G1 X-0.245
G0 X-0.427
G1 X-0.371
G0 X-0.659
G1 X-0.425
G0 X-0.129
G1 X-0.36
G0 X-0.808
G1 X-0.245
G0 X-0.427
G1 X-0.371
G0 X-0.412
G1 X-0.693
G0 X-0.824
G1 X-0.473
G0 X-0.474
G1 X-0.407
G0 X-0.359
G1 X-0.645
G0 X-0.683
G1 X-0.429
G0 X-0.694
G1 X-0.416
G0 X-0.629
G1 X-0.357
G0 X-1.357
G1 X-0.396
G0 X-0.482
G1 X-0.244
G0 X-0.427
G1 X-0.371
G0 X-0.949
G1 X-0.538
G0 X-0.325
G1 X-0.469
G0 X-1.562
G1 X-0.429
G0 X-0.695
G1 X-0.415
G0 X-0.629
G1 X-0.357
G0 X-0.565
G1 X-0.244
G0 X-0.426
G1 X-0.371
G0 X-0.621
G1 X-0.383
G0 X-0.45
G1 X-0.645
G0 X-0.723
G1 X-0.456
G0 X-0.151
G1 X-0.354
G0 X-7.134
G1 X-0.599
G0 X-11.484
G1 X-0.3
G0 X-0.773
G1 X-0.451
G0 X-0.476
G1 X-0.455
G0 X-0.435
G1 X-0.324
G0 X-0.648
G1 X-0.476
G0 X-0.564
G1 X-0.452
G0 X-0.363
G1 X-0.219
G0 X-0.114
G1 X-0.493
G0 X-0.556
G1 X-0.355
G0 X-0.022
G1 X-0.168
G0 X-0.458
G1 X-0.438
G0 X-0.57
G1 X-0.494
G0 X-0.329
G1 X-0.204
G0 X-0.065
G1 X-0.442
G0 X-0.357
G1 X-0.189
G0 X-0.075
G1 X-0.447
G0 X-0.511
G1 X-0.523
G0 X-1.072
G1 X-0.342
G0 X-1.946
G1 X-0.333
G0 X-0.097
G1 X-0.445
G0 X-1.116
G1 X-0.482
G0 X-0.432
G1 X-0.319
G0 X-0.649
G1 X-0.476
G0 X-0.506
G1 X-0.355
G0 X-0.022
G1 X-0.168
G0 X-0.458
G1 X-0.438
G0 X-1.68
G1 X-0.456
G0 X-3.454
G1 X-0.483
G0 X-0.368
G1 X-0.193
G0 X-1.998
G1 X-0.381
G0 X-9.047
G1 X-0.695
G0 X-5.357
G1 X-0.419
G0 X-1.75
G0 X0.041Y0.1
G0 X1.75
G1 X0.419
G0 X5.362
G1 X0.696
G0 X9.029
G1 X0.269
G0 X2.032
G1 X0.237
G0 X0.407
G1 X0.512
G0 X3.437
G1 X0.453
G0 X1.659
G1 X0.466
G0 X0.478
G1 X0.147
G0 X0.009
G1 X0.352
G0 X0.494
G1 X0.514
G0 X0.636
G1 X0.322
G0 X0.416
G1 X0.515
G0 X1.073
G1 X0.455
G0 X0.225
G1 X0.324
G0 X1.846
G1 X0.335
G0 X1.035
G1 X0.526
G0 X0.528
G1 X0.457
G0 X0.108
G1 X0.192
G0 X0.32
G1 X0.451
G0 X0.096
G1 X0.208
G0 X0.285
G1 X0.494
G0 X0.555
G1 X0.466
G0 X0.478
G1 X0.147
G0 X0.009
G1 X0.351
G0 X0.554
G1 X0.517
G0 X0.143
G1 X0.229
G0 X0.299
G1 X0.465
G0 X0.543
G1 X0.514
G0 X0.635
G1 X0.319
G0 X0.411
G1 X0.478
G0 X0.455
G1 X0.474
G0 X0.767
G1 X0.302
G0 X11.446
G1 X0.599
G0 X7.052
G1 X0.253
G0 X0.04
G1 X0.258
G0 X0.074
G1 X0.46
G0 X0.628
G1 X0.458
G0 X0.09
G1 X0.227
G0 X0.312
G1 X0.429
G0 X0.59
G1 X0.383
G0 X0.627
G1 X0.183
G0 X0.431
G1 X0.454
G0 X0.549
G1 X0.503
G0 X0.613
G1 X0.414
G0 X1.621
G1 X0.468
G0 X0.407
G1 X0.557
G0 X0.764
G1 X0.384
G0 X0.627
G1 X0.183
G0 X0.401
G1 X0.402
G0 X1.298
G1 X0.454
G0 X0.549
G1 X0.503
G0 X0.613
G1 X0.414
G0 X0.667
G1 X0.378
G0 X0.187
G1 X0.214
G0 X0.254
G1 X0.393
G0 X0.511
G1 X0.532
G0 X0.709
G1 X0.453
G0 X0.647
G1 X0.383
G0 X0.627
G1 X0.185
G0 X0.623
G1 X0.366
G0 X0.47
G1 X0.265
G0 X0.504
G1 X0.384
G0 X0.627
G1 X0.185
G0 X1.391
G1 X0.534
G0 X0.706
G1 X0.453
G0 X0.652
G1 X0.366
G0 X0.48
G1 X0.331
G0 X1.596
G1 X0.366
G0 X0.2
G1 X0.208
G0 X0.26
G1 X0.393
G0 X0.551
G1 X0.454
G0 X0.549
G1 X0.503
G0 X0.613
G1 X0.414
G0 X0.733
G1 X0.372
G0 X0.474
G1 X0.331
G0 X0.58
G1 X0.4
G0 X4.437
G1 X0.676
G0 X5.042
G1 X0.42
G0 X1.75
G0 X-0.042Y0.1
G0 X-1.75
G1 X-0.419
G0 X-5.045
G1 X-0.675
G0 X-4.365
G1 X-0.404
G0 X-0.508
G1 X-0.323
G0 X-0.589
G1 X-0.387
G0 X-0.697
G1 X-0.43
G0 X-0.537
G1 X-0.55
G0 X-0.508
G1 X-0.532
G0 X-0.547
G1 X-0.378
G0 X-0.172
G1 X-0.198
G0 X-0.292
G1 X-0.387
G0 X-1.49
G1 X-0.323
G0 X-0.592
G1 X-0.383
G0 X-0.641
G1 X-0.447
G0 X-0.626
G1 X-0.591
G0 X-1.316
G1 X-0.164
G0 X-0.758
G1 X-0.402
G0 X-0.384
G1 X-0.181
G0 X-0.652
G1 X-0.408
G0 X-0.475
G1 X-0.164
G0 X-0.757
G1 X-0.403
G0 X-0.623
G1 X-0.447
G0 X-0.625
G1 X-0.591
G0 X-0.537
G1 X-0.378
G0 X-0.176
G1 X-0.194
G0 X-0.285
G1 X-0.394
G0 X-0.646
G1 X-0.43
G0 X-0.537
G1 X-0.55
G0 X-0.509
G1 X-0.531
G0 X-1.254
G1 X-0.407
G0 X-0.334
G1 X-0.164
G0 X-0.758
G1 X-0.402
G0 X-0.614
G1 X-0.579
G0 X-0.46
G1 X-0.468
G0 X-1.648
G1 X-0.43
G0 X-0.538
G1 X-0.549
G0 X-0.508
G1 X-0.531
G0 X-0.325
G1 X-0.165
G0 X-0.757
G1 X-0.403
G0 X-0.561
G1 X-0.447
G0 X-0.209
G1 X-0.205
G0 X-0.18
G1 X-0.466
G0 X-0.587
G1 X-0.462
G0 X-0.01
G1 X-0.251
G0 X-0.143
G1 X-0.319
G0 X-6.993
G1 X-0.598
G0 X-11.417
G1 X-0.297
G0 X-0.746
G1 X-0.5
G0 X-0.438
G1 X-0.498
G0 X-0.397
G1 X-0.33
G0 X-0.606
G1 X-0.536
G0 X-0.535
G1 X-0.474
G0 X-0.218
G1 X-0.264
G0 X-0.172
G1 X-0.534
G0 X-0.557
G1 X-0.47
G0 X-0.498
G1 X-0.476
G0 X-0.557
G1 X-0.484
G0 X-0.252
G1 X-0.213
G0 X-0.12
G1 X-0.454
G0 X-0.285
G1 X-0.196
G0 X-0.145
G1 X-0.471
G0 X-0.545
G1 X-0.526
G0 X-1.002
G1 X-0.328
G0 X-1.781
G1 X-0.311
G0 X-0.313
G1 X-0.474
G0 X-0.253
G1 X-0.03
G0 X-0.738
G1 X-0.556
G0 X-0.401
G1 X-0.342
G0 X-0.606
G1 X-0.535
G0 X-0.499
G1 X-0.471
G0 X-0.498
G1 X-0.476
G0 X-1.657
G1 X-0.452
G0 X-2.634
G1 X-0.03
G0 X-0.729
G1 X-0.566
G0 X-0.463
G1 X-0.311
G0 X-1.994
G1 X-0.158
G0 X-9.035
G1 X-0.696
G0 X-5.367
G1 X-0.419
G0 X-1.75
G0 X0.042Y0.1
G0 X1.75
G1 X0.418
G0 X5.372
G1 X0.696
G0 X9.069
G1 X0.046
G0 X1.874
G1 X0.436
G0 X0.524
G1 X0.619
G0 X0.503
G1 X0.256
G0 X2.589
G1 X0.453
G0 X1.655
G1 X0.494
G0 X0.494
G1 X0.449
G0 X0.505
G1 X0.555
G0 X0.576
G1 X0.344
G0 X0.404
G1 X0.619
G0 X0.502
G1 X0.256
G0 X0.203
G1 X0.481
G0 X0.366
G1 X0.312
G0 X1.736
G1 X0.329
G0 X0.962
G1 X0.523
G0 X0.572
G1 X0.476
G0 X0.182
G1 X0.205
G0 X0.247
G1 X0.458
G0 X0.143
G1 X0.219
G0 X0.217
G1 X0.48
G0 X0.553
G1 X0.494
G0 X0.494
G1 X0.448
G0 X0.56
G1 X0.552
G0 X0.203
G1 X0.302
G0 X0.138
G1 X0.477
G0 X0.529
G1 X0.555
G0 X0.576
G1 X0.342
G0 X0.384
G1 X0.517
G0 X0.42
G1 X0.532
G0 X0.704
G1 X0.302
G0 X11.393
G1 X0.598
G0 X6.95
G1 X0.368
G0 X0.248
G1 X0.653
G0 X0.551
G1 X0.469
G0 X0.262
G1 X0.192
G0 X0.124
G1 X0.458
G0 X0.553
G1 X0.409
G0 X0.856
G1 X0.145
G0 X0.259
G1 X0.581
G0 X0.467
G1 X0.597
G0 X0.476
G1 X0.448
G0 X1.66
G1 X0.468
G0 X0.512
G1 X0.583
G0 X0.514
G1 X0.408
G0 X0.857
G1 X0.145
G0 X0.278
G1 X0.412
G0 X1.239
G1 X0.581
G0 X0.467
G1 X0.597
G0 X0.476
G1 X0.448
G0 X0.623
G1 X0.396
G0 X0.357
G1 X0.194
G0 X0.11
G1 X0.37
G0 X0.549
G1 X0.652
G0 X0.554
G1 X0.443
G0 X0.616
G1 X0.409
G0 X0.856
G1 X0.145
G0 X0.352
G1 X0.435
G0 X0.824
G1 X0.064
G0 X0.338
G1 X0.41
G0 X0.856
G1 X0.145
G0 X1.252
G1 X0.655
G0 X0.551
G1 X0.443
G0 X0.627
G1 X0.396
G0 X0.674
G1 X0.314
G0 X1.419
G1 X0.407
G0 X0.347
G1 X0.193
G0 X0.111
G1 X0.37
G0 X0.558
G1 X0.582
G0 X0.466
G1 X0.597
G0 X0.476
G1 X0.448
G0 X0.659
G1 X0.406
G0 X0.663
G1 X0.314
G0 X0.461
G1 X0.418
G0 X4.281
G1 X0.675
G0 X5.047
G1 X0.42
G0 X1.75
G0 X-0.042Y0.1
G0 X-1.75
G1 X-0.419
G0 X-5.05
G1 X-0.674
G0 X-4.195
G1 X-0.436
G0 X-0.416
G1 X-0.31
G0 X-0.727
G1 X-0.411
G0 X-0.627
G1 X-0.474
G0 X-0.416
G1 X-0.642
G0 X-0.422
G1 X-0.182
G0 X-0.009
G1 X-0.441
G0 X-0.567
G1 X-0.362
G0 X-0.061
G1 X-0.193
G0 X-0.393
G1 X-0.412
G0 X-1.368
G1 X-0.309
G0 X-0.733
G1 X-0.405
G0 X-0.622
G1 X-0.44
G0 X-0.484
G1 X-0.212
G0 X-0.042
G1 X-0.458
G0 X-2.166
G1 X-0.518
G0 X-1.231
G1 X-0.455
G0 X-1.22
G1 X-0.517
G0 X-0.607
G1 X-0.44
G0 X-0.492
G1 X-0.205
G0 X-0.042
G1 X-0.457
G0 X-0.563
G1 X-0.362
G0 X-0.064
G1 X-0.189
G0 X-0.402
G1 X-0.403
G0 X-0.604
G1 X-0.474
G0 X-0.416
G1 X-0.642
G0 X-0.423
G1 X-0.181
G0 X-0.009
G1 X-0.441
G0 X-1.213
G1 X-0.433
G0 X-1.193
G1 X-0.518
G0 X-0.439
G1 X-0.582
G0 X-0.552
G1 X-0.467
G0 X-1.662
G1 X-0.474
G0 X-0.416
G1 X-0.642
G0 X-0.422
G1 X-0.182
G0 X-0.009
G1 X-0.441
G0 X-1.169
G1 X-0.517
G0 X-0.544
G1 X-0.46
G0 X-0.049
G1 X-0.193
G0 X-0.323
G1 X-0.477
G0 X-0.525
G1 X-0.589
G0 X-0.341
G1 X-0.408
G0 X-6.922
G1 X-0.597
G0 X-11.382
G1 X-0.295
G0 X-0.659
G1 X-0.562
G0 X-0.402
G1 X-0.542
G0 X-0.381
G1 X-0.343
G0 X-0.538
G1 X-0.578
G0 X-0.528
G1 X-0.473
G0 X-0.048
G1 X-0.345
G0 X-0.245
G1 X-0.567
G0 X-0.566
G1 X-0.426
G0 X-0.465
G1 X-0.538
G0 X-0.545
G1 X-0.477
G0 X-0.153
G1 X-0.247
G0 X-0.175
G1 X-0.462
G0 X-0.198
G1 X-0.222
G0 X-0.21
G1 X-0.493
G0 X-0.598
G1 X-0.521
G0 X-0.922
G1 X-0.327
G0 X-1.707
G1 X-0.307
G0 X-0.397
G1 X-0.496
G0 X-0.18
G1 X-0.402
G0 X-0.322
G1 X-0.186
G0 X-0.041
G1 X-0.46
G0 X-0.407
G1 X-0.344
G0 X-0.538
G1 X-0.578
G0 X-0.517
G1 X-0.427
G0 X-0.465
G1 X-0.538
G0 X-1.172
G1 X-0.122
G0 X-0.358
G1 X-0.454
G0 X-2.565
G1 X-0.401
G0 X-0.312
G1 X-0.196
G0 X-0.041
G1 X-0.46
G0 X-0.622
G1 X-0.564
G0 X-10.75
G1 X-0.697
G0 X-5.376
G1 X-0.419
G0 X-1.75
G0 X0.042Y0.1
G0 X1.75
G1 X0.418
G0 X5.381
G1 X0.697
G0 X10.482
G1 X0.708
G0 X0.733
G1 X0.464
G0 X0.111
G1 X0.221
G0 X0.117
G1 X0.439
G0 X2.632
G1 X0.454
G0 X0.03
G1 X0.89
G0 X0.746
G1 X0.566
G0 X0.435
G1 X0.415
G0 X0.534
G1 X0.605
G0 X0.48
G1 X0.346
G0 X0.41
G1 X0.463
G0 X0.112
G1 X0.217
G0 X0.12
G1 X0.439
G0 X0.252
G1 X0.521
G0 X0.394
G1 X0.292
G0 X1.376
G1 X2.059
G0 X0.625
G1 X0.509
G0 X0.247
G1 X0.236
G0 X0.157
G1 X0.453
G0 X0.208
G1 X0.274
G0 X0.09
G1 X0.472
G0 X0.555
G1 X0.566
G0 X0.435
G1 X0.415
G0 X0.568
G1 X0.578
G0 X0.285
G1 X0.832
G0 X0.526
G1 X0.604
G0 X0.48
G1 X0.339
G0 X0.384
G1 X0.571
G0 X0.4
G1 X0.586
G0 X0.582
G1 X0.305
G0 X11.37
G1 X0.596
G0 X6.921
G1 X0.442
G0 X0.395
G1 X0.547
G0 X0.499
G1 X0.492
G0 X0.372
G1 X0.641
G0 X0.526
G1 X0.74
G0 X0.971
G1 X0.444
G0 X0.047
G1 X0.186
G0 X0.385
G1 X0.443
G0 X0.035
G1 X0.203
G0 X0.365
G1 X0.487
G0 X1.664
G1 X0.476
G0 X0.572
G1 X0.578
G0 X0.378
G1 X0.74
G0 X0.994
G1 X0.462
G0 X1.186
G1 X0.444
G0 X0.047
G1 X0.186
G0 X0.385
G1 X0.442
G0 X0.036
G1 X0.202
G0 X0.366
G1 X0.487
G0 X0.585
G1 X0.411
G0 X0.445
G1 X0.184
G0 X0.033
G1 X0.358
G0 X0.559
G1 X0.473
G0 X0.089
G1 X0.206
G0 X0.422
G1 X0.441
G0 X0.589
G1 X0.741
G0 X0.982
G1 X0.47
G0 X1.231
G1 X0.74
G0 X1.967
G1 X0.473
G0 X0.088
G1 X0.216
G0 X0.413
G1 X0.441
G0 X0.606
G1 X0.432
G0 X0.755
G1 X0.305
G0 X1.336
G1 X0.416
G0 X0.441
G1 X0.185
G0 X0.031
G1 X0.359
G0 X0.566
G1 X0.444
G0 X0.047
G1 X0.186
G0 X0.385
G1 X0.442
G0 X0.036
G1 X0.202
G0 X0.366
G1 X0.487
G0 X0.596
G1 X0.431
G0 X0.755
G1 X0.305
G0 X0.392
G1 X0.453
G0 X4.109
G1 X0.675
G0 X5.051
G1 X0.419
G0 X1.75
G0 X-0.041Y0.1
G0 X-1.75
G1 X-0.419
G0 X-5.054
G1 X-0.674
G0 X-4
G1 X-0.49
G0 X-0.373
G1 X-0.303
G0 X-0.774
G1 X-0.456
G0 X-0.565
G1 X-0.496
G0 X-0.317
G1 X-0.204
G0 X-0.075
G1 X-0.442
G0 X-0.348
G1 X-0.19
G0 X-0.084
G1 X-0.448
G0 X-0.564
G1 X-0.354
G0 X-0.018
G1 X-0.164
G0 X-0.463
G1 X-0.445
G0 X-1.306
G1 X-0.304
G0 X-0.764
G1 X-0.466
G0 X-0.573
G1 X-0.455
G0 X-0.347
G1 X-0.22
G0 X-0.123
G1 X-0.499
G0 X-1.809
G1 X-0.325
G0 X-0.133
G1 X-0.448
G0 X-1.238
G1 X-0.484
G0 X-0.796
G1 X-0.325
G0 X-0.133
G1 X-0.448
G0 X-0.567
G1 X-0.456
G0 X-0.356
G1 X-0.21
G0 X-0.123
G1 X-0.5
G0 X-0.554
G1 X-0.355
G0 X-0.018
G1 X-0.164
G0 X-0.475
G1 X-0.432
G0 X-0.566
G1 X-0.496
G0 X-0.317
G1 X-0.204
G0 X-0.075
G1 X-0.442
G0 X-0.348
G1 X-0.191
G0 X-0.083
G1 X-0.448
G0 X-1.159
G1 X-0.488
G0 X-0.839
G1 X-0.325
G0 X-0.133
G1 X-0.448
G0 X-0.338
G1 X-0.567
G0 X-0.58
G1 X-0.498
G0 X-1.666
G1 X-0.496
G0 X-0.316
G1 X-0.205
G0 X-0.075
G1 X-0.441
G0 X-0.349
G1 X-0.19
G0 X-0.084
G1 X-0.448
G0 X-0.816
G1 X-0.324
G0 X-0.134
G1 X-0.447
G0 X-0.509
G1 X-0.604
G0 X-0.411
G1 X-0.5
G0 X-0.475
G1 X-0.509
G0 X-0.451
G1 X-0.464
G0 X-6.93
G1 X-0.595
G0 X-11.375
G1 X-0.298
G0 X-0.491
G1 X-0.624
G0 X-0.4
G1 X-0.597
G0 X-0.389
G1 X-0.356
G0 X-0.401
G1 X-0.63
G0 X-0.518
G1 X-0.791
G0 X-0.338
G1 X-0.588
G0 X-0.572
G1 X-0.403
G0 X-0.39
G1 X-0.6
G0 X-0.574
G1 X-0.796
G0 X-0.239
G1 X-0.442
G0 X-0.1
G1 X-0.268
G0 X-0.275
G1 X-0.531
G0 X-0.649
G1 X-1.931
G0 X-1.479
G1 X-0.27
G0 X-0.367
G1 X-0.544
G0 X-0.332
G1 X-0.657
G0 X-0.182
G1 X-0.469
G0 X-0.414
G1 X-0.367
G0 X-0.401
G1 X-0.63
G0 X-0.552
G1 X-0.403
G0 X-0.39
G1 X-0.6
G0 X-0.604
G1 X-1.54
G0 X-2.686
G1 X-0.658
G0 X-0.181
G1 X-0.47
G0 X-0.86
G1 X-0.839
G0 X-10.21
G1 X-0.697
G0 X-5.386
G1 X-0.418
G0 X-1.75
G0 X0.041Y0.1
G0 X1.75
G1 X0.419
G0 X5.39
G1 X0.698
G0 X9.95
G1 X0.912
G0 X1.031
G1 X0.485
G0 X0.23
G1 X0.561
G0 X2.73
G1 X1.645
G0 X0.523
G1 X0.671
G0 X0.308
G1 X0.392
G0 X0.572
G1 X0.655
G0 X0.32
G1 X0.372
G0 X0.431
G1 X0.486
G0 X0.229
G1 X0.561
G0 X0.405
G1 X0.579
G0 X0.295
G1 X0.271
G0 X1.759
G1 X1.638
G0 X0.676
G1 X0.549
G0 X0.306
G1 X0.766
G0 X0.273
G1 X0.755
G0 X0.593
G1 X0.671
G0 X0.308
G1 X0.392
G0 X0.576
G1 X0.597
G0 X0.395
G1 X0.746
G0 X0.513
G1 X0.655
G0 X0.319
G1 X0.372
G0 X0.408
G1 X0.629
G0 X0.385
G1 X0.691
G0 X0.353
G1 X0.305
G0 X11.38
G1 X0.595
G0 X6.947
G1 X0.484
G0 X0.499
G1 X0.473
G0 X0.458
G1 X0.507
G0 X0.445
G1 X0.571
G0 X0.491
G1 X0.457
G0 X0.247
G1 X0.321
G0 X0.702
G1 X0.459
G0 X0.117
G1 X0.191
G0 X0.312
G1 X0.454
G0 X0.101
G1 X0.209
G0 X0.278
G1 X0.492
G0 X1.668
G1 X0.521
G0 X0.577
G1 X0.55
G0 X0.319
G1 X0.457
G0 X0.251
G1 X0.317
G0 X0.73
G1 X0.524
G0 X1.118
G1 X0.459
G0 X0.113
G1 X0.195
G0 X0.312
G1 X0.454
G0 X0.101
G1 X0.209
G0 X0.278
G1 X0.492
G0 X0.555
G1 X0.451
G0 X0.5
G1 X0.142
G0 X0.006
G1 X0.351
G0 X0.554
G1 X0.521
G0 X0.15
G1 X0.236
G0 X0.281
G1 X0.467
G0 X0.548
G1 X0.457
G0 X0.247
G1 X0.321
G0 X0.67
G1 X0.487
G0 X1.242
G1 X0.457
G0 X0.251
G1 X0.317
G0 X1.698
G1 X0.521
G0 X0.15
G1 X0.232
G0 X0.286
G1 X0.467
G0 X0.554
G1 X0.489
G0 X0.753
G1 X0.301
G0 X1.3
G1 X0.468
G0 X0.482
G1 X0.143
G0 X0.005
G1 X0.352
G0 X0.559
G1 X0.459
G0 X0.117
G1 X0.191
G0 X0.312
G1 X0.454
G0 X0.101
G1 X0.209
G0 X0.278
G1 X0.492
G0 X0.552
G1 X0.479
G0 X0.762
G1 X0.301
G0 X0.373
G1 X0.522
G0 X3.892
G1 X0.673
G0 X5.056
G1 X0.419
G0 X1.75
G0 X-0.041Y0.1
G0 X-1.75
G1 X-0.419
G0 X-5.059
G1 X-0.673
G0 X-3.001
G1 X-0.076
G0 X-0.691
G1 X-0.569
G0 X-0.376
G1 X-0.3
G0 X-0.737
G1 X-0.507
G0 X-0.543
G1 X-0.482
G0 X-0.246
G1 X-0.213
G0 X-0.125
G1 X-0.455
G0 X-0.276
G1 X-0.198
G0 X-0.153
G1 X-0.472
G0 X-0.557
G1 X-0.466
G0 X-0.499
G1 X-0.478
G0 X-1.31
G1 X-0.299
G0 X-0.738
G1 X-0.506
G0 X-0.539
G1 X-0.475
G0 X-0.201
G1 X-0.272
G0 X-0.178
G1 X-0.538
G0 X-1.619
G1 X-0.314
G0 X-0.324
G1 X-0.479
G0 X-1.24
G1 X-0.495
G0 X-0.572
G1 X-0.313
G0 X-0.326
G1 X-0.478
G0 X-0.526
G1 X-0.476
G0 X-0.209
G1 X-0.264
G0 X-0.177
G1 X-0.539
G0 X-0.556
G1 X-0.467
G0 X-0.507
G1 X-0.469
G0 X-0.558
G1 X-0.482
G0 X-0.246
G1 X-0.213
G0 X-0.125
G1 X-0.455
G0 X-0.276
G1 X-0.2
G0 X-0.152
G1 X-0.471
G0 X-0.303
G1 X-0.076
G0 X-0.684
G1 X-0.576
G0 X-0.648
G1 X-0.314
G0 X-0.324
G1 X-0.479
G0 X-0.303
G1 X-0.539
G0 X-0.558
G1 X-0.551
G0 X-1.67
G1 X-0.482
G0 X-0.245
G1 X-0.214
G0 X-0.125
G1 X-0.455
G0 X-0.276
G1 X-0.198
G0 X-0.153
G1 X-0.472
G0 X-0.617
G1 X-0.313
G0 X-0.326
G1 X-0.478
G0 X-0.469
G1 X-0.552
G0 X-0.47
G1 X-0.508
G0 X-0.447
G1 X-0.454
G0 X-0.523
G1 X-0.5
G0 X-6.975
G1 X-0.595
G0 X-11.401
G1 X-0.298
G0 X-0.179
G1 X-0.761
G0 X-0.491
G1 X-0.551
G0 X-0.46
G1 X-0.374
G0 X-0.202
G1 X-0.715
G0 X-0.474
G1 X-0.725
G0 X-0.462
G1 X-0.604
G0 X-0.583
G1 X-0.382
G0 X-0.226
G1 X-0.726
G0 X-0.632
G1 X-0.706
G0 X-0.316
G1 X-0.71
G0 X-0.348
G1 X-0.563
G0 X-0.702
G1 X-0.528
G0 X-0.758
G1 X-0.309
G0 X-1.801
G1 X-0.273
G0 X-0.159
G1 X-0.658
G0 X-0.485
G1 X-0.467
G0 X-0.275
G1 X-0.495
G0 X-0.455
G1 X-0.378
G0 X-0.201
G1 X-0.715
G0 X-0.594
G1 X-0.383
G0 X-0.224
G1 X-0.727
G0 X-0.486
G1 X-0.839
G0 X-0.412
G1 X-0.47
G0 X-2.775
G1 X-0.466
G0 X-0.275
G1 X-0.495
G0 X-1.273
G1 X-0.876
G0 X-9.735
G1 X-0.698
G0 X-5.395
G1 X-0.418
G0 X-1.75
G0 X0.041Y0.1
G0 X1.75
G1 X0.418
G0 X5.4
G1 X0.698
G0 X9.52
G1 X0.835
G0 X1.524
G1 X0.515
G0 X0.305
G1 X0.399
G0 X2.793
G1 X0.477
G0 X0.798
G1 X0.503
G0 X0.487
G1 X0.775
G0 X0.127
G1 X0.231
G0 X0.785
G1 X0.75
G0 X0.083
G1 X0.384
G0 X0.484
G1 X0.514
G0 X0.306
G1 X0.399
G0 X0.546
G1 X1.02
G0 X1.851
G1 X0.31
G0 X0.712
G1 X0.53
G0 X0.728
G1 X0.569
G0 X0.398
G1 X0.632
G0 X0.408
G1 X0.61
G0 X0.71
G1 X0.775
G0 X0.127
G1 X0.231
G0 X0.735
G1 X0.607
G0 X0.543
G1 X0.519
G0 X0.635
G1 X0.75
G0 X0.084
G1 X0.378
G0 X0.532
G1 X0.359
G0 X0.689
G1 X1.086
G0 X11.465
G1 X0.594
G0 X7.017
G1 X0.503
G0 X0.545
G1 X0.436
G0 X0.436
G1 X0.509
G0 X0.493
G1 X0.535
G0 X0.464
G1 X0.481
G0 X0.376
G1 X0.311
G0 X0.564
G1 X0.478
G0 X0.188
G1 X0.206
G0 X0.24
G1 X0.459
G0 X0.149
G1 X0.224
G0 X0.205
G1 X0.48
G0 X1.662
G1 X0.585
G0 X0.535
G1 X0.516
G0 X0.316
G1 X0.487
G0 X0.367
G1 X0.313
G0 X0.591
G1 X0.629
G0 X0.471
G1 X0.285
G0 X0.259
G1 X0.478
G0 X0.187
G1 X0.207
G0 X0.239
G1 X0.46
G0 X0.148
G1 X0.225
G0 X0.205
G1 X0.479
G0 X0.552
G1 X0.499
G0 X0.491
G1 X0.445
G0 X0.559
G1 X0.556
G0 X0.211
G1 X0.304
G0 X0.127
G1 X0.476
G0 X0.522
G1 X0.481
G0 X0.376
G1 X0.311
G0 X0.498
G1 X0.515
G0 X1.243
G1 X0.487
G0 X0.367
G1 X0.313
G0 X1.564
G1 X0.556
G0 X0.211
G1 X0.306
G0 X0.124
G1 X0.477
G0 X0.522
G1 X0.532
G0 X0.703
G1 X0.3
G0 X1.33
G1 X0.503
G0 X0.488
G1 X0.445
G0 X0.562
G1 X0.478
G0 X0.188
G1 X0.206
G0 X0.239
G1 X0.46
G0 X0.148
G1 X0.225
G0 X0.205
G1 X0.479
G0 X0.526
G1 X0.539
G0 X0.695
G1 X0.301
G0 X0.389
G1 X0.631
G0 X0.469
G1 X0.286
G0 X2.875
G1 X0.672
G0 X5.061
G1 X0.419
G0 X1.75
G0 X-0.042Y0.1
G0 X-1.75
G1 X-0.418
G0 X-5.064
G1 X-0.671
G0 X-2.775
G1 X-0.42
G0 X-0.285
G1 X-0.191
G0 X-0.053
G1 X-0.461
G0 X-0.41
G1 X-0.297
G0 X-0.648
G1 X-0.564
G0 X-0.517
G1 X-0.475
G0 X-0.143
G1 X-0.252
G0 X-0.18
G1 X-0.463
G0 X-0.188
G1 X-0.225
G0 X-0.217
G1 X-0.495
G0 X-0.566
G1 X-0.424
G0 X-0.459
G1 X-0.546
G0 X-1.358
G1 X-0.297
G0 X-0.642
G1 X-0.569
G0 X-0.517
G1 X-0.473
G0 X-0.021
G1 X-0.362
G0 X-0.252
G1 X-0.57
G0 X-1.526
G1 X-0.312
G0 X-0.391
G1 X-0.498
G0 X-0.403
G1 X-0.315
G0 X-0.527
G1 X-0.526
G0 X-0.451
G1 X-0.305
G0 X-0.396
G1 X-0.501
G0 X-0.521
G1 X-0.473
G0 X-0.021
G1 X-0.363
G0 X-0.252
G1 X-0.569
G0 X-0.566
G1 X-0.425
G0 X-0.472
G1 X-0.533
G0 X-0.544
G1 X-0.476
G0 X-0.142
G1 X-0.252
G0 X-0.18
G1 X-0.463
G0 X-0.188
G1 X-0.229
G0 X-0.213
G1 X-0.495
G0 X-0.239
G1 X-0.42
G0 X-0.275
G1 X-0.201
G0 X-0.052
G1 X-0.461
G0 X-0.546
G1 X-0.312
G0 X-0.39
G1 X-0.499
G0 X-0.333
G1 X-0.495
G0 X-0.508
G1 X-0.621
G0 X-1.655
G1 X-0.475
G0 X-0.143
G1 X-0.251
G0 X-0.181
G1 X-0.463
G0 X-0.188
G1 X-0.225
G0 X-0.217
G1 X-0.495
G0 X-0.523
G1 X-0.305
G0 X-0.396
G1 X-0.5
G0 X-0.464
G1 X-0.52
G0 X-0.505
G1 X-0.52
G0 X-0.424
G1 X-0.418
G0 X-0.552
G1 X-0.518
G0 X-7.062
G1 X-0.594
G0 X-11.699
G1 X-0.753
G0 X-0.984
G1 X-0.048
G0 X-0.637
G1 X-1.119
G0 X-0.873
G1 X-0.224
G0 X-0.748
G1 X-0.51
G0 X-1.207
G1 X-0.613
G0 X-0.891
G1 X-0.35
G0 X-0.76
G1 X-0.298
G0 X-0.519
G1 X-0.552
G0 X-0.763
G1 X-0.53
G0 X-0.665
G1 X-0.313
G0 X-1.907
G1 X-0.915
G0 X-0.636
G1 X-0.348
G0 X-0.312
G1 X-0.534
G0 X-0.522
G1 X-1.127
G0 X-1.307
G1 X-0.613
G0 X-0.512
G1 X-0.377
G0 X-0.95
G1 X-0.483
G0 X-2.81
G1 X-0.349
G0 X-0.311
G1 X-0.534
G0 X-1.789
G1 X-0.785
G0 X-9.309
G1 X-0.699
G0 X-5.404
G1 X-0.418
G0 X-1.75
G0 X0.041Y0.1
G0 X1.75
G1 X0.418
G0 X5.41
G1 X0.698
G0 X9.177
G1 X0.658
G0 X2.056
G1 X0.493
G0 X0.372
G1 X0.257
G0 X2.87
G1 X0.49
G0 X1.035
G1 X0.31
G0 X0.586
G1 X0.372
G0 X1.536
G1 X0.513
G0 X0.076
G1 X0.406
G0 X0.579
G1 X0.493
G0 X0.373
G1 X0.256
G0 X0.802
G1 X0.677
G0 X2.064
G1 X0.316
G0 X0.619
G1 X0.527
G0 X0.802
G1 X0.402
G0 X3.049
G1 X0.372
G0 X1.379
G1 X0.383
G0 X2.029
G1 X0.513
G0 X0.076
G1 X0.402
G0 X1.796
G1 X0.557
G0 X11.768
G1 X0.593
G0 X7.108
G1 X0.532
G0 X0.55
G1 X0.41
G0 X0.412
G1 X0.53
G0 X0.503
G1 X0.521
G0 X0.463
G1 X0.523
G0 X0.394
G1 X0.29
G0 X0.508
G1 X0.512
G0 X0.253
G1 X0.24
G0 X0.149
G1 X0.451
G0 X0.213
G1 X0.279
G0 X0.079
G1 X0.471
G0 X1.647
G1 X0.46
G0 X0.028
G1 X0.181
G0 X0.455
G1 X0.492
G0 X0.349
G1 X0.518
G0 X0.391
G1 X0.298
G0 X0.527
G1 X0.464
G0 X0.122
G1 X0.225
G0 X0.089
G1 X0.441
G0 X0.311
G1 X0.512
G0 X0.253
G1 X0.24
G0 X0.149
G1 X0.451
G0 X0.212
G1 X0.28
G0 X0.079
G1 X0.471
G0 X0.558
G1 X0.549
G0 X0.451
G1 X0.413
G0 X0.568
G1 X0.58
G0 X0.291
G1 X0.828
G0 X0.501
G1 X0.524
G0 X0.393
G1 X0.291
G0 X0.445
G1 X0.537
G0 X0.5
G1 X0.351
G0 X0.383
G1 X0.518
G0 X0.391
G1 X0.298
G0 X1.52
G1 X0.58
G0 X0.291
G1 X0.828
G0 X0.504
G1 X0.592
G0 X0.568
G1 X0.304
G0 X1.408
G1 X0.569
G0 X0.43
G1 X0.413
G0 X0.56
G1 X0.512
G0 X0.252
G1 X0.241
G0 X0.149
G1 X0.451
G0 X0.212
G1 X0.28
G0 X0.079
G1 X0.471
G0 X0.526
G1 X0.592
G0 X0.568
G1 X0.303
G0 X0.434
G1 X0.464
G0 X0.123
G1 X0.221
G0 X0.092
G1 X0.441
G0 X2.767
G1 X0.671
G0 X5.067
G1 X0.418
G0 X1.75
G0 X-0.042Y0.1
G0 X-1.75
G1 X-0.418
G0 X-5.068
G1 X-0.671
G0 X-2.729
G1 X-0.643
G0 X-0.19
G1 X-0.472
G0 X-0.469
G1 X-0.297
G0 X-0.478
G1 X-0.629
G0 X-0.534
G1 X-0.791
G0 X-0.243
G1 X-0.44
G0 X-0.093
G1 X-0.273
G0 X-0.278
G1 X-0.533
G0 X-0.56
G1 X-0.402
G0 X-0.378
G1 X-0.61
G0 X-1.477
G1 X-0.298
G0 X-0.461
G1 X-0.646
G0 X-0.491
G1 X-0.786
G0 X-0.345
G1 X-0.59
G0 X-1.526
G1 X-0.288
G0 X-0.352
G1 X-0.537
G0 X-0.405
G1 X-0.313
G0 X-0.52
G1 X-0.556
G0 X-0.453
G1 X-0.27
G0 X-0.357
G1 X-0.549
G0 X-0.504
G1 X-0.785
G0 X-0.345
G1 X-0.591
G0 X-0.571
G1 X-0.402
G0 X-0.4
G1 X-0.589
G0 X-0.576
G1 X-0.791
G0 X-0.243
G1 X-0.44
G0 X-0.093
G1 X-0.268
G0 X-0.283
G1 X-0.533
G0 X-0.36
G1 X-0.642
G0 X-0.19
G1 X-0.472
G0 X-0.518
G1 X-0.288
G0 X-0.352
G1 X-0.536
G0 X-0.404
G1 X-0.474
G0 X-0.404
G1 X-0.193
G0 X-0.067
G1 X-0.457
G0 X-1.637
G1 X-0.791
G0 X-0.243
G1 X-0.44
G0 X-0.092
G1 X-0.273
G0 X-0.279
G1 X-0.533
G0 X-0.512
G1 X-0.27
G0 X-0.357
G1 X-0.549
G0 X-0.484
G1 X-0.534
G0 X-0.49
G1 X-0.526
G0 X-0.416
G1 X-0.408
G0 X-0.522
G1 X-0.565
G0 X-7.154
G1 X-0.593
G0 X-11.879
G1 X-0.238
G0 X-2.007
G1 X-0.416
G0 X-0.291
G1 X-0.1
G0 X-2.301
G1 X-0.22
G0 X-5.039
G1 X-0.176
G0 X-0.839
G1 X-0.525
G0 X-0.567
G1 X-0.312
G0 X-2.301
G1 X-0.262
G0 X-1.839
G1 X-0.276
G0 X-0.65
G1 X-0.419
G0 X-0.29
G1 X-0.101
G0 X-2.637
G1 X-0.247
G0 X-1.087
G1 X-0.497
G0 X-3.692
G1 X-0.276
G0 X-2.307
G1 X-0.544
G0 X-9.06
G1 X-0.698
G0 X-5.415
G1 X-0.417
G0 X-1.75
G0 X0.042Y0.1
G0 X1.75
G1 X0.417
G0 X5.42
G1 X0.698
G0 X8.975
G1 X0.439
G0 X6.457
G1 X0.507
G0 X1.127
G1 X0.197
G0 X2.972
G1 X0.433
G0 X5.411
G1 X0.318
G0 X0.505
G1 X0.529
G0 X8.921
G1 X0.429
G0 X0.946
G1 X0.13
G0 X13.053
G1 X0.591
G0 X7.216
G1 X0.583
G0 X0.494
G1 X0.406
G0 X0.42
G1 X0.531
G0 X0.474
G1 X0.541
G0 X0.505
G1 X0.587
G0 X0.283
G1 X0.269
G0 X0.527
G1 X0.552
G0 X0.31
G1 X0.759
G0 X0.277
G1 X0.751
G0 X1.628
G1 X0.457
G0 X0.116
G1 X0.204
G0 X0.34
G1 X0.448
G0 X0.467
